!!!!SEGMENT: pl-wtm--r-2514_hertz-michal--rondo.krn
!!!cenid: 18xx:3084
!!!COM: Hertz, Michał
!!!COM-rismid: pe41023359
!!!CDT: 1844/09/28-~1918
!!!CNT: Polish
!!!OTL: Rondo
!!!PDT:
!!!AGN:
!!!SMS-siglum: PL-Wtm
!!!SMS-shelfmark: R 2514
!!!SMS-shelfwork: W
!!!SMS-variant:
!!!SMS-altvar:
!!!NIFC-rismid: 1001086577
!!!URL-scan: http://repozytorium.nifc.pl/skany/pl-wtm-nut--r2514
!!!ONB-nifc:
!!!OMD:allegro mod.
**kern	**kern	**dynam
*part1	*part1	*part1
*staff2	*staff1	*
*clefF4	*clefG2	*
*k[b-e-a-]	*k[b-e-a-]	*
*c:	*c:	*
*M2/4	*M2/4	*
*>[A,B,B,C,C,D,D]	*>[A,B,B,C,C,D,D]	*
=1	=1	=1
*>A	*>A	*
*2\right	*2\right	*
*color:blue	*color:blue	*
16r	16r	f
!LO:TX:t=P:problem:stem.color=blue	!LO:TX:t=P:problem:stem.color=blue	!
16G\KL	16g/KL	.
!	!LO:ART:color=black	!
[8A-^\J	[8a-^>/J	.
!LO:TX:t=P:problem:stem.color=blue	!LO:TX:t=P:problem:stem.color=blue	!
16A-\LL]	16a-\LL]	.
16G\	16g\	.
*color:auto	*color:auto	*
16A-\	16a-\	.
16c\JJ	16cc\JJ	.
=2	=2	=2
16d\LL	16dd\LL	.
16GGG\ 16GG	16g\ 16gg	ff
16AAA-\ 16AA-	16a-\ 16aa-	.
16CC\JJ 16C	16cc\JJ 16ccc	.
8DD\ 8D	8dd\ 8ddd	.
8r;	8r;	.
=3	=3	=3
8r	8r	f
8G\	8g/	.
(16G\LL	8ryy	.
16ryy	.	.
16A-\	(>16a-\LL	.
16c\JJ)	16cc\JJ)	.
=4	=4	=4
16d\LL	16dd'\LL	.
(16GGG\ 16GG	(16g\ 16gg	ff
16AAA-\ 16AA-	16a-\ 16aa-	.
16CC\JJ) 16C	16cc\JJ) 16ccc	.
8DD\ 8D	8dd\ 8ddd	.
8r;	8r;	.
!!linebreak:original
=5	=5	=5
!	!	!LO:DY:rj
!	!	!LO:HP:b=2
(16GG\LL 16G	4..G/ 4..g	p <
16FF#X\) 16F#X	.	.
16FFn\ 16Fn	.	.
16EEn\JJ 16En	.	.
[4FF\ [4F	.	.
.	16A-/ 16a-	.
=6	=6	=6
(8FF\L] 8F]	(16G/LL 16g	.
.	16A-/ 16a-	.
16EEn\L) 16En	16G/) 16g	.
16DD#X\JJ 16D#X	16G/JJ 16g	.
[4EE\ [4E	(16g\LL 16gg	.
.	16a-\J 16aa-	.
!	!	!LO:HP:b=2
.	8g\J) 8gg	[ >
=7	=7	=7
!	!	!LO:DY:rj
(16EEnX\LL] 16EnX]	4..G/ 4..g	] p
16DD#X\ 16D#X	.	.
16DDn\) 16Dn	.	.
16CC#X\JJ 16C#X	.	<
!LO:TX:b:t=a	!	!
!LO:TX:a:t=d	!	!
(<4AAA-\ [>4D	.	.
.	16A-/ 16a-	.
=8	=8	=8
8DD\L) 8D]	(16G/LL 16g	.
.	16A-/ 16a-	.
(16CC#X\L 16C#X	16G/) 16g	.
16BBB#X\JJ) 16BB#X	16G/JJ 16g	.
4CC#/ 4C#	((16g\LL 16gg	.
.	16a-\J) 16aa-	[
.	8g\J) 8gg	>
=9	=9	=9
(16CCn\KL 16Cn	8.d\L 8.dd	] f
[8.BBBn\J) [8.BBn	.	.
.	16a-\Jk 16aa-	.
8BBB\L] 8BB]	(16g\LL 16gg	.
.	16f\ 16ff	.
(16CC\L 16C	16e-\ 16ee-	.
16DD\JJ) 16D	16d\JJ) 16dd	.
=10	=10	=10
8.DD\L 8.D	(16c\KL 16cc	.
.	[8.Bn\J) [8.bn	.
16AA-\Jk 16A-	.	.
(16GG\LL 16G	8B\L] 8b]	.
16FF\ 16F	.	.
16EE-\ 16E-	(16c\L 16cc	.
16DD\JJ) 16D	16d\JJ) 16dd	.
!!linebreak:original
=11	=11	=11
(16CC/KL 16C	(8.d\L 8.dd	.
[8.BBBn/J) [8.BBn	.	.
.	16a-\Jk) 16aa-	.
8BBB\L] 8BB]	(16g\LL 16gg	.
.	16f\ 16ff	.
16CC\L 16C	16e-\ 16ee-	.
16DD^\JJ 16D	16d\JJ) 16dd	.
=12	=12	=12
8.DD\L 8.D	(16c\KL 16cc	.
.	[8.Bn\J) [8.bn	.
16AA-\Jk 16A-	.	.
(16GG\LL 16G	8B\L] 8b]	.
16FF\) 16F	.	.
16EE-\ 16E-	16c\L 16cc	.
16DD\JJ 16D	16d\JJ 16dd	.
=13	=13	=13
!	!LO:TX:t=P:problem:korekta głównego skryptora	!
(16C\LL	8dd\L	.
16BBn\)	.	.
16r	16r	.
16F\JJ	16f\Jk	.
(16E-\LL	(16e-\LL	.
16D\JJ)	16d\JJ)	.
8r	8r	.
=14	=14	=14
16r	2ryy	.
(16F\LL	.	.
16E-\	.	.
16D\JJ	.	.
16G\LL	.	.
16F\)	.	.
16r	.	.
16F\JJ	.	.
=15	=15	=15
(16E-\LL	2ryy	.
16D\)	.	.
16r	.	.
16A-\JJ	.	.
(16G\LL	.	.
16F\JJ)	.	.
8r	.	.
=16	=16	=16
16r	2ryy	.
(16A-\LL	.	.
16G\	.	.
16F\JJ	.	.
16B-\LL	.	.
16A-\JJ)	.	.
8ryy	.	.
!!linebreak:original
=17	=17	=17
!	!	!LO:DY:rj
(16CC/LL 16C	(8.g\L 8.ee- 8.gg	f
16BBBn/J 16BBn	.	.
[8CC/J) [8C	.	.
.	16f\K) 16dd 16ff	.
16CC\LL] 16C]	8f'\ 8dd 8ff	.
16CC\J 16C	.	.
8C\J 8F 8A- 8c	8a-'\J 8ff 8aa-	.
=18	=18	=18
(16CC\LL 16C	((8a-\L 8ff 8aa-	.
16BBBn\ 16BBn	.	.
16CC\ 16C	8g\J)) 8ee- 8gg	.
16DD\JJ 16D	.	.
16EE-\LL 16E-	8.r	.
16CC\JJ) 16C	.	.
16r	.	.
16BBB/ 16BB	16g\ 16ee- 16gg	.
=19	=19	=19
(16CC/LL 16C	(8.g\L 8.ee- 8.gg	.
16BBBn/J 16BBn	.	.
[8CC/J) [8C	.	.
.	16f\Jk) 16dd 16ff	.
16CC\LL] 16C]	((16f\LL 16dd 16ff	.
16CC\J 16C	16e-\) 16cc 16ee-	.
8C\J 8F 8A- 8c	16f'\ 16dd 16ff	.
.	16a-'\JJ) 16ff 16aa-	.
=20	=20	=20
(16CC\LL 16C	((8a-\L 8ff 8aa-	.
16BBBn\ 16BBn	.	.
16CC\ 16C	8g\J)) 8ee- 8gg	.
16DD\JJ) 16D	.	.
(16EE-\LL 16E-	8.r	.
16CC\JJ) 16C	.	.
16r	.	.
16BBB\ 16BB	16g\ 16ee- 16gg	.
=21	=21	=21
(8.FF\L 8.F	(8e-\L 8a- 8ee-	.
.	8d\J) 8dd	.
16EEn\Jk) 16En	.	.
(16FF\LL 16F	8.r	.
16GG\ 16G	.	.
16FF\ 16F	.	.
16DD\JJ) 16D	16f\ 16a- 16ff	.
=22	=22	=22
(8.EE-\L 8.E-	(8d\L 8g 8dd	.
.	8c\J) 8cc	.
16DD\Jk) 16D	.	.
(16EE-\LL 16E-	8.r	.
16FF\ 16F	.	.
16EE-\ 16E-	.	.
16CC\JJ) 16C	16e-\ 16g 16ee-	.
!!linebreak:original
=23	=23	=23
(8.FF\L 8.F	(16e-\LL 16a- 16ee-	.
.	16d\J) 16dd	.
.	[8f\J [8a- [8ff	.
16EE-\Jk) 16E-	.	.
(16DD\LL 16D	(16f\LL] 16a-] 16ff]	.
16EE-\ 16E-	16e-\ 16ee-	.
16FF\ 16F	16d\ 16an 16dd	.
16FF#X\JJ) 16F#X	16c\JJ) 16d 16cc	.
=24	=24	=24
(8.GG\L 8.G	(8c\L 8e- 8cc	.
.	8Bn\J) 8d 8bn	.
16AA-\Jk) 16A-	.	.
(16GG\LL 16G	8.r	.
16FF#X\ 16F#X	.	.
16GG\) 16G	.	.
16BBBn\JJ 16BBn	16g\ 16ee- 16gg	.
=25	=25	=25
(16CC/LL 16C	(8.g\L 8.ee- 8.gg	.
16BBBn/J 16BBn	.	.
[8CC/J) [8C	.	.
.	16f\K) 16dd 16ff	.
16CC\LL] 16C]	8f'\ 8dd 8ff	.
16CC\J 16C	.	.
8C\J 8F 8A- 8c	8a-'\J 8ff 8aa-	.
=26	=26	=26
(16CC\LL 16C	(8a-\L (8ff (8aa-	.
16BBBn\ 16BBn	.	.
16CC\ 16C	8g\J) 8ee-) 8gg)	.
16DD\JJ) 16D	.	.
(16EE-\LL 16E-	8.r	.
16CC\JJ) 16C	.	.
16r	.	.
16BBB/ 16BB	16g\ 16ee- 16gg	.
=27	=27	=27
!	!	!LO:HP:b=2
(16CC\LL 16C	(16g\LL 16ee- 16gg	<
16EE-\ 16E-	16c\ 16cc	.
16FF\ 16F	16d\ 16dd	.
16GG\JJ 16G	16e-\JJ 16ee-	.
16AA-\LL 16A-	16f\LL 16ff	.
16GG\ 16G	16g\ 16gg	.
16FF\ 16F	16a-\ 16aa-	.
16AA-\JJ) 16A-	16cc\JJ) 16ccc	.
=28	=28	=28
(16CC\LL 16C	(8a-\L 8ff 8aa-	[
16BBBn\ 16BBn	.	.
16CC\ 16C	8g\J) 8ee- 8gg	.
16DD\JJ) 16D	.	.
(16EE-\LL 16E-	16r	.
!	!	!LO:DY:rj
16CC\ 16C	16e-\LL 16ee-	p
16DD\ 16D	16f\ 16ff	.
16EE-\JJ) 16E-	16g\JJ 16gg	.
!!pagebreak:original
=29	=29	=29
*	*^	*
8FF\L 8F	(16b-\LL 16bb-	2cc\	.
.	16a-\ 16aa-	.	.
(16AA-\L 16A-	16f\ 16ff	.	.
16GG\JJ) 16G	16g\JJ) 16gg	.	.
8FF\L 8F	(16a-\LL 16aa-	.	.
.	16g\J) 16gg	.	.
(16EEn\L 16En	8a-\J 8aa-	.	.
16FF\JJ) 16F	.	.	.
=30	=30	=30	=30
8GG\L 8G	(16cc\LL 16ccc	2ee-\	.
.	16b-\ 16bb-	.	.
(16BB-\L 16B-	16g\ 16gg	.	.
16AA-\JJ) 16A-	16a-\JJ) 16aa-	.	.
8GG\L 8G	(16b-\LL 16bb-	.	.
.	16an\J) 16aan	.	.
(16FF#X\L 16F#X	8b-\J 8bb-	.	.
16GG\JJ) 16G	.	.	.
*	*v	*v	*
=31	=31	=31
*^	*	*
8r	8GG\L 8G	(16ee-\LL 16eee-	.
.	.	16b-\J) 16bb-	.
(<16e-/LL	[8G\J	[8b-\J [8bb-	.
16B-/JJ)	.	.	.
8.B-/L	8.G\L]	16b-\LL] 16bb-]	.
.	.	(16an\ 16aan	.
.	.	16b-\ 16bb-	.
16e-/Jk	16G\Jk 16e-	16bn\JJ) 16bbn	.
=32	=32	=32	=32
2e-/	(>16A-\LL	(16cc\LL 16ccc	.
.	16G\	16b-X\ 16bb-X	.
.	16E-\	16g\ 16gg	.
.	16F\JJ)	16a-\JJ) 16aa-	.
.	(>16G\LL	(16b-\LL 16bb-	.
.	16F#X\J	16an\J 16aan	.
.	8G\J)	8b-\J) 8bb-	.
*v	*v	*	*
!!linebreak:original
=33	=33	=33
(8G\L 8e-	(16ee-\LL 16eee-	.
.	16b-\J) 16bb-	.
16F#X\L 16d	8b-\J 8bb-	.
[16G\JJ [16e-	.	.
(16G\LL]) 16e-]	(16cc\LL 16ccc	.
16E-\ 16c	16g\J) 16gg	.
16D\ 16Bn	8g\J 8gg	.
16E-\JJ) 16c	.	.
=34	=34	=34
(16E-\LL 16c	(16cc\LL 16ccc	.
16D\J 16Bn	16g\J) 16gg	.
[8E-\J) [8c	8g\J 8gg	.
(16E-\LL] 16c]	(16a-\LL 16aa-	.
16C\ 16A-	16e-\J) 16ee-	.
16BBn\ 16G	8e-\J 8ee-	.
16C\JJ) 16A-	.	.
=35	=35	=35
(16F\LL	(16a-\LL 16aa-	.
16E-\	16d\JJ) 16dd	.
16D\)	4d\ 4dd	.
16C\JJ 16c	.	.
(16BB-\LL 16B-	.	.
16AA-\ 16A-	.	.
16GG\ 16G	(16e-\LL 16ee-	.
16AA-\JJ) 16A-	16f\JJ) 16ff	.
=36	=36	=36
(16EE-\LL 16E-	(16g\LL 16gg	.
16C\JJ) 16c	16f\ 16ff	.
4C\ 4c	16e-\ 16ee-	.
.	16d\JJ 16dd	.
.	16e-\LL 16ee-	.
.	16f\ 16ff	.
(16BB-\LL 16B-	16g\ 16gg	.
16AA-\JJ) 16A-	16a-\JJ) 16aa-	.
=37	=37	=37
(16A-\LL	(16cc\LL 16ccc	.
16G\	16f\JJ) 16ff	.
16F\)	4f\ 4ff	.
16E-\JJ 16e-	.	.
(16D\LL 16d	.	.
16C\ 16c	.	.
16BB-\ 16B-	(16g\LL 16gg	.
16C\JJ) 16c	16a-\JJ) 16aa-	.
=38	=38	=38
(16GG\LL 16G	(16b-\LL 16bb-	.
16C\JJ) 16c	16a-\ 16aa-	.
4C\ 4c	16g\ 16gg	.
.	16f\JJ 16ff	.
.	16g\LL 16gg	.
.	16a-\ 16aa-	.
(16D\LL 16d	16b-\ 16bb-	.
16C\JJ) 16c	16cc\JJ) 16ccc	.
!!linebreak:original
=39	=39	=39
(16c\LL	(16ee-\LL 16eee-	.
16B-\	16a-\JJ) 16aa-	.
16A-\)	4a-\ 4aa-	.
16G\JJ 16g	.	.
(16F\LL 16f	.	.
16E-\ 16e-	.	.
16D\ 16d	(16b-\LL 16bb-	.
16E-\JJ) 16e-	16cc\JJ) 16ccc	.
=40	=40	=40
(16A-\LL	(16cc\LL 16ccc	.
16G\	16f\JJ) 16ff	.
16F\)	4f\ 4ff	.
16E-\JJ 16e-	.	.
(16D\LL 16d	.	.
16C\ 16c	.	.
16BB-\ 16B-	(16g\LL 16gg	.
16C\JJ) 16c	16a-\JJ) 16aa-	.
=41	=41	=41
*	*^	*
(16C\LL 16c	(<16aa-/LL	(4a-\	.
16FF\J) 16F	16gg/	.	.
[8FF\J [8F	16ff/	.	.
.	16ee-/JJ)	.	.
16FF\LL] 16F] 16A-	(<16dd/LL	4e-\)	.
16AA-\ 16A-	16cc/	.	.
!	!LO:TX:t=P:problem:♮ below	!	!
!	!LO:TX:a:t=h	!	!
(16GG\ 16G	16bn/	.	.
16AA-\JJ) 16A-	16cc/JJ)	.	.
=42	=42	=42	=42
(16AA-\LL 16A-	(<16ff/LL	(4f\	.
16DD\J) 16D	16ee-/	.	.
[8DD\J [8D	16dd/	.	.
.	16cc/JJ)	.	.
16DD\LL] 16D]	(<16b-/LL	4c\)	.
16FF\ 16F	16a-/	.	.
(16EE-\ 16E-	16g/	.	.
16FF\JJ) 16F	16a-/JJ)	.	.
*	*v	*v	*
!LO:TX:b:t=x	!LO:TX:a:t=x	!
=43	=43	=43
!	!	!LO:DY:rj
.	8qg/	p
8.AA-\L 8.A-	(16f/LL	.
.	16B-/J)	.
.	[8B-/J	.
16GG\Jk 16G	.	.
16AA-\LL 16A-	16B-/LL]	<
16DD\J 16D	(16An/	.
8DD\J 8D	16B-/	.
.	16c-X/JJ)	[[
!!linebreak:original
=44	=44	=44
*^	*	*
!	!	!	!LO:DY:rj
(<16A-/LL	2A-\	4c-X/	f
16D/J)	.	.	.
8D/J	.	.	.
(<16D/LL	.	(16f/LL	.
16C#X/J	.	16c-/J)	.
8D/J)	.	8c-/J	.
*v	*v	*	*
=45	=45	=45
!	!	!LO:DY:rj
.	8qg/	p
8.GG\L 8.G	(16f/LL	.
.	16Bn/J)	.
.	[8B/J	.
16FF#\Jk 16F#	.	.
!	!	!
16GG\LL 16G	16B/LL]	.
16DD\J 16D	(16A#/	<
8DD\J 8D	16B/	.
.	16c/JJ)	.
=46	=46	=46
*^	*	*
(<16E-/LL	2EE-\	4c/	[ f
16GG/J)	.	.	.
[<8GG/J	.	.	.
16GG/LL]	.	(16g/LL	.
(<16FF#X/J	.	16c/J)	.
8GG/J)	.	8c/J	.
*v	*v	*	*
=47	=47	=47
*	*^	*
!	!	!	!LO:DY:rj
(8.AA-/L	(<16f/LL	[2F\	p
!	!	!	!LO:HP:b=2:t=po-co a po-co cre-scen-do:ext=s:ext=cd
.	16c/J)	.	<
.	[8c/J	.	.
16GG/Jk)	.	.	.
(16AA-/LL	16c/LL]	.	.
16GG/	(<16Bn/	.	.
16AA-/	16c/	.	.
16AAn/JJ)	16c#X/JJ)	.	.
=48	=48	=48	=48
(8.AAn/L	(<16f/LL	2F\]	.
.	16c#X/J)	.	.
.	[<8c#/J	.	.
16AA-X/Jk)	.	.	.
(16AA-/LL	16c#/LL]	.	.
16GG/	(<16B#X/	.	.
16AA-/	16c#/	.	.
16BB-/JJ)	16d/JJ)	.	.
!!linebreak:original
=49	=49	=49	=49
*	*	*^	*
(8.AAn/L	(16f/LL	[2F\	4f\	.
.	16c/J	.	.	.
.	8c/J	.	.	.
32AA-X/LL	.	.	.	.
32GG/JJJ)	.	.	.	.
4AA-/	(<16f/LL)	.	4f\	.
.	16c#X/J)	.	.	.
.	8c#/J	.	.	.
=50	=50	=50	=50	=50
(8.AAn/L	((<16f/LL	2F\]	4f\	.
.	16c#X/J)	.	.	.
.	8c#/J	.	.	.
32GG#X/LL	.	.	.	.
32AA/JJJ)	.	.	.	.
4BB-/	(<16f/LL)	.	4f\	.
.	16d/J)	.	.	.
.	8d/J	.	.	.
=51	=51	=51	=51	=51
(8.AAn/L	((<16f#X/LL	[2F#X\	4f#\	.
.	16d/J)	.	.	.
.	8d/J	.	.	.
32GG#X/LL	.	.	.	.
32AA/JJJ)	.	.	.	.
4AA#X/	(<16f#/LL)	.	4f#\	.
.	16c#X/J)	.	.	.
.	8c#/J	.	.	.
=52	=52	=52	=52	=52
(8.BBn/L	((<16f#X/LL	2F#\]	4f#\	.
.	16d/J)	.	.	.
.	8d/J	.	.	.
32BB-X/LL	.	.	.	[
32AAn/JJJ)	.	.	.	.
4BB-/	(<16f#/LL)	.	4f#\	.
.	16d#X/J)	.	.	.
.	8d#/J	.	.	.
*	*v	*v	*v	*
!!pagebreak:original
=53	=53	=53
!	!	!LO:DY:rj
(8.EE-\L 8.E-	(16G/LL 16e- 16g	f
.	16B-/J) 16g 16b-	.
.	[8B-/J [8g [8b-	.
16DD\Jk) 16D	.	.
(8EE-\L 8E-	(16B-/LL] 16g] 16b-]	.
.	16An/J) 16f#X 16an	.
8BBB-\J) 8BB-	[8B-/J [8g [8b-	.
=54	=54	=54
[4EE-\ [4E-	(>16B-/LL] 16g] 16b-]	.
.	16c/ 16a- 16cc	.
.	16B-/ 16g 16b-	.
.	16An/JJ 16f#X 16an	.
16EE-\LL] 16E-]	(16B-/LL) 16g 16b-	.
(16FF\ 16F	16G/JJ) 16e- 16g	.
16EE-\ 16E-	8r	.
16DD\JJ) 16D	.	.
=55	=55	=55
!	!	!LO:HP:a
(16CC/LL 16C	(16A-\LL 16e- 16a-	<
16BBB-/J) 16BB-	16B-\ 16b-	.
8AAA-/J 8AA-	16c\ 16cc	.
.	16d\JJ 16dd	.
.	8qff/	.
(8.CC/L 8.C	16e-\LL 16a- 16ee-	.
.	16d\ 16dd	.
.	16e-\ 16ee-	.
16AAA-/Jk) 16AA-	16c\JJ) 16e- 16cc	.
=56	=56	=56
(8.EE-\L 8.E-	(16c\LL 16e- 16cc	[[
.	16c-X\J) 16cc-X	.
!	!	!LO:HP:a
.	[8B-\J [8g [8b-	>
16DD\Jk) 16D	.	.
4EE-\ 4E-	(16B-\LL] 16g] 16b-]	.
.	16An\J) 16f#X 16an	.
.	8B-\J 8g 8b-	]
=57	=57	=57
*	*^	*
(16FF\LL 16F	8r	(>16a-\LL	p
16EE-\J) 16E-	.	16cc\J)	.
[8DD\J [8D	(<16cc/LL	[8cc\J	.
.	16aa-/JJ)	.	.
16DD\LL] 16D]	(8.aa-/L	(8.cc\L]	.
16D\J 16d	.	.	.
8E-\J 8e-	.	.	.
.	16gg/Jk)	16b-\Jk)	.
*	*v	*v	*
!!linebreak:original
=58	=58	=58
8BB-\L 8B-	(16b-\LL 16gg	.
.	16a-\) 16ff	.
.	(<8qgg/	.
8F\J 8B- 8d	16a-'\) (16ff	.
.	16g'\JJ 16een)	.
8BB-:\ 8F: 8B-: 8d:	(16b-\LL 16gg	.
.	16a-\JJ) 16ff	.
8r	16r	.
.	16a-\	.
=59	=59	=59
*	*^	*
(16EE-\LL 16E-	8r	(>16g\LL	.
16DD\J) 16D	.	16b-\J)	.
[8CC\J [8C	(<16b-/LL	[8b-\J	.
.	16gg/JJ)	.	.
16CC\LL] 16C]	(<8.gg/L	(>8.b-\L]	.
16C\J 16c	.	.	.
8D\J 8d	.	.	.
.	16ff/Jk)	16a-\Jk) 16ff	.
=60	=60	=60	=60
8E-\L 8e-	(16a-\LL 16ff	4.ryy	.
.	16g\) 16ee-	.	.
.	8qff/	.	.
8B-\J 8e-	16g'\ 16ee-	.	.
.	16f'\JJ 16dd	.	.
8E-:\ 8B-: 8e-:	(16a-\LL 16ff	.	.
.	16g\JJ) 16ee-	.	.
8r	16rd	8ree	.
.	16g\	.	.
=61	=61	=61	=61
*^	*	*	*
!	!	!	!	!LO:DY:rj
8DD/L 8D	8DD\	(<16f/LL	8c\	p
!	!	!	!	!LO:HP:b=2:t=po-co a poco crescen-do:ext=s:ext=cd
.	.	16a-/J)	.	<
(<16D/L	8r	[8a-/J	4.c-X\	.
16F/JJ)	.	.	.	.
8F/L	8r	(<16a-/LL]	.	.
.	.	16g/	.	.
(16DD/L 16D	8ryy	16f/	.	.
16EE-/JJ) 16E-	.	16g/JJ)	.	.
!!linebreak:original
=62	=62	=62	=62	=62
8F/L	8FF\ 8F	(<16a-/LL	8e-\	.
.	.	16cc/J)	.	.
(<16F/L	8r	[8cc/J	4.d\	.
16A-/JJ)	.	.	.	.
8A-/L	8r	16cc/LL]	.	.
.	.	(<16b-/	.	.
(16FF/L 16F	8ryy	16a-/	.	.
16GG/JJ) 16G	.	16b-/JJ)	.	.
=63	=63	=63	=63	=63
8A-/L	8AA-\ 8A-	(<16cc/LL	8g\	.
.	.	16ee-/J)	.	.
(<16A-/L	8r	[8ee-/J	4.f\	.
16c/JJ)	.	.	.	.
8c/L	8r	16ee-/LL]	.	.
.	.	(<16dd/	.	.
(16AA-/L 16A-	8ryy	16cc/	.	.
16BB-/JJ) 16B-	.	16ee-/JJ)	.	.
*v	*v	*	*	*
=64	=64	=64	=64
[4BB-\ [4B-	16dd/LL	8.a-\L 8.dd	[ <
.	(<16ee-/	.	.
.	16een/	.	.
.	16ff/JJ)	16a-\Jk 16dd	.
16BB-\LL] 16B-]	(<16ee/LL 16gg	8a-\	.
16BB-\J 16B-	16dd/JJ) 16ff	.	.
8BBB-\J 8BB-	8ryy	8r	[
*	*v	*v	*
=65	=65	=65
!	!	!LO:DY:rj
(8.EE-\L 8.E-	(16g\LL 16ee- 16gg	f
.	16b-\J 16gg 16bb-)	.
.	[8b-\J [<8gg [8bb-	.
16DD\Jk) 16D	.	.
(8EE-\L 8E-	16b-\LL] 16gg] (16bb-]	.
.	16an\J 16aan)	.
8BBB-\J) 8BB-	[8b-\J [<8gg [8bb-	.
!!linebreak:original
=66	=66	=66
!	!LO:TX:t=P:problem:brak dokończenia ligatury	!
[4EE-\ [4E-	(16b-\LL] 16gg] 16bb-]	.
.	16cc\ 16aa- 16ccc	.
.	16b-\ 16gg 16bb-	.
.	16an\JJ) 16ff#X 16aan	.
16EE-\LL] 16E-]	(16b-\LL 16gg 16bb-	.
(16FF\ 16F	16g\JJ) 16ee- 16gg	.
16EE-\ 16E-	8r	.
16DD\JJ) 16D	.	.
=67	=67	=67
(16CC/LL 16C	(16a-\LL 16aa-	.
16BBB-/J) 16BB-	16b-\ 16bb-	.
8AAA-/J 8AA-	16cc\ 16ccc	.
.	16dd\JJ) 16ddd	.
.	8qfff/	.
!LO:N:vis=8.	!	!
(8CC/L 8C	(16ee-\LL 16aa- 16eee-	.
.	16dd\ 16ddd	.
8AAA-/ 8AA-/J)	16ee-\ 16eee-	.
.	16cc\JJ) 16ccc	.
=68	=68	=68
(8.EE-\L 8.E-	(16cc\LL 16ee- 16ccc	.
.	16cc-X\J) 16ccc-X	.
.	[8b-\J [8gg [8bb-	.
16DD\Jk) 16D	.	.
!	!LO:TX:a:t=g	!
4EE-\ 4E-	(16b-\LL] 16gg] 16bb-]	.
.	16an\J) 16ff#X 16aan	.
.	8b-\J 8gg 8bb-	.
=69	=69	=69
*	*^	*
(16FF\LL 16F	8r	(>16a-\LL	.
16EE-\J) 16E-	.	16cc\J)	.
[8DD\J [8D	(<16cc/LL	[8cc\J	.
.	16aa-/JJ)	.	.
16DD\LL] 16D]	4ryy	(8.a-\L 8.cc] 8.aa-	.
16D\J 16d	.	.	.
8E-\J 8e-	.	.	.
.	.	16g\Jk) 16b- 16gg	.
!!linebreak:original
=70	=70	=70	=70
8BB-\L 8B-	(16g\LL 16b- 16gg	4.ryy	.
.	16f\ 16a- 16ff)	.	.
.	8qgg/	.	.
8F\J 8B- 8d	(16f\ 16a- 16ff	.	.
.	16en\JJ 16g 16een)	.	.
8BB-:\ 8F: 8B-: 8d:	(16g\LL 16b- 16gg	.	.
.	16f\JJ 16a- 16ff)	.	.
8r	16rf	8rgg	.
.	16a-\	.	.
=71	=71	=71	=71
(16EE-\LL 16E-	8r	(>16g\LL	.
16DD\J) 16D	.	16b-\J)	.
[8CC\J [8C	(<16b-/LL	[8b-\J	.
.	16gg/JJ)	.	.
16CC\LL] 16C]	4ryy	(8.g\L 8.b-] 8.gg	.
16C\J 16c	.	.	.
8D\J 8d	.	.	.
.	.	16f\Jk 16a- 16ff)	.
=72	=72	=72	=72
8E-\L 8e-	(16f\LL 16a- 16ff	4.ryy	.
.	16e-\) 16g 16ee-	.	.
.	8qff/	.	.
8E-\J 8B-	(16e-\ 16g 16ee-	.	.
.	16d\JJ) 16f 16dd	.	.
8E-\ 8B- 8e-	(16f\LL 16a- 16ff	.	.
.	16e-\JJ) 16g 16ee-	.	.
8r	16rd	8rff	.
.	16g\	.	.
!!pagebreak:original
=73	=73	=73	=73
*^	*	*	*
!	!	!	!	!LO:DY:rj
[2c/	(>16A-\LL	8r	(>16f\LL	p
.	16G\J)	.	16a-\J)	.
.	[8F\J	(<16a-/LL	8a-\J	.
.	.	16ff/JJ)	.	.
.	(>16F\LL]	4ryy	[4a-\ [4ff	.
.	16G\J)	.	.	.
.	8F\J	.	.	.
=74	=74	=74	=74	=74
2c/]	(>4E-\	(<16ff/LL]	4a-\]	.
.	.	16gg/J)	.	<
.	.	8ff/J	.	.
.	4D\)	(16a-\LL 16aa-	4ryy	.
.	.	16b-\J) 16bb-	.	.
.	.	8a-\J 8aa-	.	[
=75	=75	=75	=75	=75
!	!	!	!	!LO:DY:rj
[2e-/	(>16c\LL	8r	(>16a-\LL	p
.	16B-\J)	.	16cc\J)	.
.	[>8A-\J	(<16cc/LL	8cc\J	.
.	.	16aa-/JJ)	.	.
.	(>16A-\LL]	4ryy	[4cc\ [4aa-	.
.	16B-\J)	.	.	.
.	8A-\J	.	.	.
=76	=76	=76	=76	=76
2e-/]	(4G\	(<16aa-/LL]	4cc\]	.
.	.	16bb-/J)	.	.
.	.	8aa-/J	.	<
.	4F\)	(16cc\LL 16ccc	4ryy	.
.	.	16dd\J) 16ddd	.	.
!	!	!LO:TX:t=P:problem:skreślone 3 takty	!	!
.	.	8cc\J 8ccc	.	[
*	*	*v	*v	*
!!linebreak:original
=77	=77	=77	=77
*	*^	*	*
!	!	!	!	!LO:DY:rj
8BBB-/ 8BB-	8ryy	8ryy	((4.b-\ 4.bb-	[ f
(16d/LL	8rDD	8F\L 8B-	.	.
16e-/JJ)	.	.	.	.
(16f/LL	8rDD	8A-\J	.	.
16g/JJ)	.	.	.	.
8f/ 8a-	8ryy	(16BB-\LL 16B-	8dd\))	.
.	.	16BBB-\JJ) 16BB-	.	.
*v	*v	*v	*	*
=78	=78	=78
(8.BB-\L 8.B-	(8ee-\L	.
.	[8gg\J)	.
16G\Jk) 16B- 16e-	.	.
8B-\ 8e- 8g	16gg\LL]	.
.	(16ee-\	.
8r	16dd\	.
.	16ee-\JJ)	.
!!linebreak:original
=79	=79	=79
*^	*	*
8BB-/	8r	(16b-\LL 16bb-	.
.	.	8qbb-/	.
.	.	16cc-X\JJ) 16ccc-X	.
(16B-/LL 16d	8F\L	(4b-\ 4bb-	.
16e-/JJ)	.	.	.
(16f/LL	8B-\J 8d	.	.
16e-/JJ)	.	.	.
8f/	(>16B-\LL 16d	8dd\)	.
.	16BBB-\JJ) 16BB-	.	.
*v	*v	*	*
=80	=80	=80
8.BB-\L 8.B-	8ee-\L	.
.	(8gg-X\J	.
16G-X\Jk 16B- 16e-	.	.
8B-\ 8e- 8g-X	16gg-\LL)	.
.	(16ee-\	.
8r	16dd\	.
.	16ee-\JJ)	.
=81	=81	=81
8r	4..b-\ 4..bb-	.
(16BB-\LL 16B-	.	.
16C\JJ) 16c	.	.
(16D\LL 16d	.	.
*	*	*^
!	!	!	!LO:HP:b=2:t=cre-scen-do po-co crescendo:ext=s:ext=cd
16BB-\JJ) 16B-	.	.	<
8r	.	.	.
.	16d\ 16dd	.	.
=82	=82	=82	=82
8r	4..b-\ 4..bb-	.	.
(16C\LL 16c	.	.	.
16D\JJ) 16d	.	.	.
(16E-\LL 16e-	.	.	.
16C\JJ) 16c	.	.	.
8r	.	.	.
.	16e-\ 16ee-	.	.
=83	=83	=83	=83
8r	4..b-\ 4..bb-	.	.
(16C#X\LL 16c#X	.	.	.
16D\JJ) 16d	.	.	.
(16En\LL 16en	.	.	.
16C#\JJ) 16c#	.	.	.
8r	.	[[	.
.	16en\ 16een	.	.
!!linebreak:original
=84	=84	=84	=84
!	!	!LO:DY:rj	!
8r	[4b-\ [4bb-	f	.
8D\ 8d	.	.	.
[4AA-\ 4D [4A-	16b-\LL] 16bb-]	<	.
.	(16ff\	.	.
.	16b-\) 16bb-	.	.
.	(16fff\JJ	.	.
=85	=85	=85	=85
2AA-\_ 2A-_	8.bb-\L) 8.bbb-	[	.
!	!	!LO:HP:t=dim	!
.	(16ff\Jk	>	.
.	8.b-\L) 8.bb-	.	[
.	(16f\Jk	.	.
=86	=86	=86	.
!	!LO:TX:b:t=ri-te-nu-to:problem:extended text	!	!
8.AA-\L] 8.A-]	4..B-\) 4..b-	.	.
16AA-\Jk 16A-	.	.	.
8.DD\L 8.D	.	.	.
16EE-\Jk 16E-	16B-\ 16f 16a- 16b-	.	.
*	*	*v	*v
=87	=87	=87
*	*^	*
!	!	!	!LO:DY:rj:b=2
[2FF\ [2F	[<2B-/ [<2d [2a- [2b-	[4e-/	ff
.	.	16e-/LL]	.
.	.	16d/	.
.	.	16f/	.
.	.	16e-/JJ	.
*	*v	*v	*
=88	=88	=88
8FF\] 8F]	8B-/] 8d] 8a-] 8b-]	.
8r	8r	.
4r;	4r;	.
!!linebreak:original
=89	=89	=89
!	!LO:TX:a:t=a tempo	!LO:DY:rj
8r	4..g\ 4..gg	f
(16GG\LL 16G	.	.
16AA-\JJ) 16A-	.	.
(16BBn\LL 16Bn	.	.
!	!	!LO:HP:b=2:t=cre-scen-do.:ext=cd
16GG\JJ) 16G	.	<
8r	.	.
.	16Bn\ 16bn	.
=90	=90	=90
8r	4..g\ 4..gg	.
(16AAn\LL 16An	.	.
16BBn\JJ) 16Bn	.	.
(16C\LL 16c	.	.
16AA\JJ) 16A	.	.
8r	.	.
.	16c\ 16cc	.
=91	=91	=91
8r	4..g\ 4..gg	.
(16AA#X\LL 16A#X	.	.
16BB#X\JJ) 16B#X	.	.
(16C#X\LL 16c#X	.	.
16AA#\JJ) 16A#	.	.
8r	.	.
.	16c#X\ 16cc#X	.
=92	=92	=92
8.r	[4g\ [4gg	[[ <
(16BBn\ 16Bn	.	.
[4FF\) [4F	16g\LL] 16gg]	.
.	(16d\	.
.	16g\) 16gg	.
.	(16ddd\JJ	.
=93	=93	=93
2FF\_ 2F_	8.gg\L) 8.ggg	.
.	(16dd\Jk	[
!	!	!LO:HP:t=dim
.	8.g\L) 8.gg	>
.	16d\Jk	.
=94	=94	=94
!	!LO:TX:b:t=ri-te-nu-to:problem:extended text	!
8.FF\L] 8.F]	4..G/ 4..g	.
16FF\Jk 16F	.	.
8.BBBn/L 8.BBn	.	.
!LO:TX:b:t=c	!LO:TX:b:t=c	!
16CC/Jk 16C	16G/ 16c 16f 16g	.
=95	=95	=95
*	*^	*
!	!	!	!LO:DY:b=2:rj
[2DD\ [2D	4c/	[2G/ [2f [2g	ff
.	16c/LL	.	.
!	!LO:SIC:v:s=16Bn/	!	!
.	16B-/	.	.
.	16d/	.	.
.	16c/JJ	.	.
*	*v	*v	*
=96	=96	=96
!	!LO:SIC:v:n=2:s=8Bn	!
8DD\] 8D]	8G/] 8B- 8f] 8g]	.
8r	8r	.
8r;	8r;	.
16ryy	16ryy	.
16BBBn/ 16BBn	16g\ 16ee- 16gg	.
!!pagebreak:original
=97	=97	=97
!	!	!LO:DY:rj
(16CC/LL 16C	(8.g\L 8.ee- 8.gg	f
16BBBn/J) 16BBn	.	.
[8CC/J [8C	.	.
.	16f\K) 16dd 16ff	.
16CC\LL] 16C]	8f'\ 8dd 8ff	.
16CC\J 16C	.	.
8C\J 8F 8A- 8c	8a-'\J 8ff 8aa-	.
=98	=98	=98
(16CC\LL 16C	(8a-\L 8ff 8aa-	.
16BBBn\ 16BBn	.	.
16CC\ 16C	8g\J) 8ee- 8gg	.
16DD\JJ) 16D	.	.
(16EE-\LL 16E-	8.r	.
16CC\JJ) 16C	.	.
16r	.	.
16BBB\ 16BB	16g\ 16ee- 16gg	.
=99	=99	=99
(16CC/LL 16C	(8.g\L 8.ee- 8.gg	.
16BBBn/J) 16BBn	.	.
[8CC/J [8C	.	.
.	16f\Jk) 16dd 16ff	.
16CC\LL] 16C]	(16f\LL 16dd 16ff	.
16CC\J 16C	16e-\ 16cc 16ee-	.
8C\J 8F 8A- 8c	16f\ 16dd 16ff	.
.	16a-\JJ) 16ff 16aa-	.
=100	=100	=100
(16CC\LL 16C	(8a-\L 8ff 8aa-	.
16BBBn\ 16BBn	.	.
16CC\ 16C	8g\J) 8ee- 8gg	.
16DD\JJ) 16D	.	.
(16EE-\LL 16E-	8.r	.
16CC\JJ) 16C	.	.
16r	.	.
16BBB/ 16BB	16g\ 16ee- 16gg	.
=101	=101	=101
(8.FF\L 8.F	(8e-\L 8a- 8ee-	.
.	8d\J) 8dd	.
16EEn\Jk) 16En	.	.
(16FF\LL 16F	8.r	.
16GG\ 16G	.	.
16FF\ 16F	.	.
16DD\JJ) 16D	16f\ 16a- 16ff	.
=102	=102	=102
(8.EE-\L 8.E-	(8d\L 8g 8dd	.
.	8c\J) 8cc	.
16DD\Jk) 16D	.	.
(16EE-\LL 16E-	8.r	.
16FF\ 16F	.	.
16EE-\ 16E-	.	.
16CC\JJ) 16C	16e-\ 16g 16ee-	.
!!linebreak:original
=103	=103	=103
(8.FF\L 8.F	(16e-\LL 16a- 16ee-	.
.	16d\J) 16dd	.
.	[8f\J [8a- [8ff	.
16EE-\Jk) 16E-	.	.
(16DD\LL 16D	16f\LL] 16a-] 16ff]	.
16EE-\ 16E-	(16e-\ 16ee-	.
16FF\ 16F	16d\ 16an 16dd	.
16FF#X\JJ) 16F#X	16c\JJ) 16d 16cc	.
=104	=104	=104
(8.GG\L 8.G	(8c\L 8e- 8cc	.
.	8Bn\J) 8d 8bn	.
16AA-\Jk) 16A-	.	.
(16GG\LL 16G	8.r	.
16FF#X\ 16F#X	.	.
16GG\ 16G	.	.
16BBBn\JJ) 16BBn	16g\ 16ee- 16gg	.
=105	=105	=105
(16CC/LL 16C	(8.g\L 8.ee- 8.gg	.
16BBBn/J) 16BBn	.	.
[8CC/J [8C	.	.
.	16f\K) 16dd 16ff	.
16CC\LL] 16C]	8f'\ 8dd 8ff	.
16CC\J 16C	.	.
8C\J 8F 8A- 8c	8a-'\J 8ff 8aa-	.
=106	=106	=106
(16CC\LL 16C	(8a-\L 8ff 8aa-	.
16BBBn\ 16BBn	.	.
16CC\ 16C	8g\J) 8ee- 8gg	.
16DD\JJ) 16D	.	.
(16EE-\LL 16E-	8.r	.
16CC\JJ) 16C	.	.
16r	.	.
16BBBn\ 16BBnX	16g\ 16ee- 16gg	.
=107	=107	=107
!	!	!LO:HP:a
(16CC\LL 16C	16g\LL 16ee- 16gg	<
16EE-\ 16E-	(16c\ 16cc	.
16FF\ 16F	16d\ 16dd	.
16GG\JJ 16G	16e-\JJ 16ee-	.
16AA-\LL 16A-	16f\LL 16ff	.
16GG\ 16G	16g\ 16gg	.
16FF\ 16F	16a-\ 16aa-	.
16AA-\JJ) 16A-	16cc\JJ) 16ccc	.
=108	=108	=108
(16CC\LL 16C	(8a-\L 8ff 8aa-	.
16BBBn\ 16BBn	.	.
!	!	!LO:HP:a
16CC\ 16C	8g\J) 8ee- 8gg	[ >
16DD\JJ) 16D	.	.
(16EE-\LL 16E-	16r	.
!	!	!LO:DY:rj
16CC\ 16C	(16e-\LL 16ee-	] p
16DD\ 16D	16f\ 16ff	.
16EE-\JJ) 16E-	16g\JJ) 16gg	.
!!linebreak:original
=109	=109	=109
*	*^	*
8FF\L 8F	(16b-\LL 16bb-	2cc/	.
.	16a-\ 16aa-	.	.
(16AA-\L 16A-	16f\ 16ff	.	.
16GG\JJ) 16G	16g\JJ) 16gg	.	.
8FF\L 8F	(16a-\LL 16aa-	.	.
.	16g\J) 16gg	.	.
(16EEn\L 16En	8a-\J 8aa-	.	.
16FF\JJ) 16F	.	.	.
=110	=110	=110	=110
8GG\L 8G	(16cc\LL 16ccc	2ee-/	.
.	16b-\ 16bb-	.	.
(16BB-\L 16B-	16g\ 16gg	.	.
16AA-\JJ) 16A-	16a-\JJ) 16aa-	.	.
8GG\L 8G	(16b-\LL 16bb-	.	.
.	16an\J) 16aan	.	.
(16FF#X\L 16F#X	8b-\J 8bb-	.	.
16GG\JJ) 16G	.	.	.
*	*v	*v	*
=111	=111	=111
*^	*	*
8r	8GG\L 8G	(16ee-\LL 16eee-	f
.	.	16b-\J 16bb-)	.
(<16e-/LL	[8G\J	[8b-\J [8bb-	.
16B-/JJ)	.	.	.
4ryy	(8.G\L] 8.B-	16b-\LL] 16bb-]	.
.	.	(16an\ 16aan	p
.	.	16b-\ 16bb-	.
.	16G\Jk) 16e-	16bn\JJ 16bbn)	.
*v	*v	*	*
=112	=112	=112
(16A-\LL	(16cc\LL 16ccc	.
16G\	16b-X\ 16bb-X	.
16E-\	16g\ 16gg	.
16F\JJ)	16a-\JJ 16aa-)	.
(16G\LL	(16b-\LL 16bb-	.
16F#X\J	16an\J 16aan)	.
8G\J)	8b-\J 8bb-	.
=113	=113	=113
8G\L 8e-	(16ee-\LL 16eee-	f
.	16b-\J 16bb-)	.
(16F#X\L 16d	8b-\J 8bb-	.
16G\JJ) 16e-	.	.
(16G\LL 16e-	(16cc\LL 16ccc	.
16E-\ 16c	16g\J 16gg)	.
16D\ 16Bn	8g\J 8gg	.
16E-\JJ) 16c	.	.
=114	=114	=114
8E-\L 8c	(16cc\LL 16ccc	.
.	16g\J 16gg)	.
(16D\L 16Bn	8g\J 8gg	.
16E-\JJ) 16c	.	.
(16E-\LL 16c	(16a-\LL 16aa-	.
16C\ 16A-	16e-\J 16ee-)	.
16BBn\ 16G	8e-\J 8ee-	.
16C\JJ) 16A-	.	.
!!linebreak:original
=115	=115	=115
(16F\LL	(16a-\LL 16aa-	.
16E-\	16d\JJ) 16dd	.
16D\)	4d\ 4dd	.
16C\JJ 16c	.	.
(16BB-\LL 16B-	.	.
16AA-\ 16A-	.	.
16GG\ 16G	(16e-\LL 16ee-	.
16AA-\JJ) 16A-	16f\JJ) 16ff	.
=116	=116	=116
(16EE-\LL 16E-	(16g\LL 16gg	.
16C\JJ) 16c	16f\ 16ff	.
4C\ 4c	16e-\ 16ee-	.
.	16d\JJ) 16dd	.
.	(16e-\LL 16ee-	.
.	16f\ 16ff	.
(16BB-\LL 16B-	16g\ 16gg	.
16AA-\JJ) 16A-	16a-\JJ) 16aa-	.
=117	=117	=117
(16A-\LL	(16cc\LL 16ccc	.
16G\	16f\JJ) 16ff	.
16F\)	4f\ 4ff	.
16E-\JJ 16e-	.	.
(16D\LL 16d	.	.
16C\ 16c	.	.
16BB-\ 16B-	(16g\LL 16gg	.
16C\JJ) 16c	16a-\JJ) 16aa-	.
=118	=118	=118
(16GG\LL 16G	(16b-\LL 16bb-	.
16E-\JJ) 16e-	16a-\ 16aa-	.
4E-\ 4e-	16g\ 16gg	.
.	16f\JJ) 16ff	.
.	(16g\LL 16gg	.
.	16a-\ 16aa-	.
(16D\LL 16d	16b-\ 16bb-	.
16C\JJ) 16c	16cc\JJ) 16ccc	.
=119	=119	=119
(16c\LL	(16ee-\LL 16eee-	.
16B-\	16a-\JJ) 16aa-	.
16A-\)	4a-\ 4aa-	.
16G\JJ 16g	.	.
(16F\LL 16f	.	.
16E-\ 16e-	.	.
16D\ 16d	(16b-\LL 16bb-	.
16E-\JJ) 16e-	16cc\JJ) 16ccc	.
!!linebreak:original
=120	=120	=120
(16A-\LL	(16cc\LL 16ccc	.
16G\	16f\JJ) 16ff	.
16F\)	4f\ 4ff	.
16E-\JJ 16e-	.	.
(16D\LL 16d	.	.
16C\ 16c	.	.
16BB-\ 16B-	(16g\LL 16gg	.
16C\JJ) 16c	16a-\JJ) 16aa-	.
=121	=121	=121
*	*^	*
(16C\LL 16c	(<16aa-/LL	4a-\	.
16FF\JJ) 16F	16gg/	.	.
4FF\ 4F	16ff/	.	.
.	16ee-/JJ)	.	.
.	4ee-/	16dd\LL	.
.	.	(>16cc\	.
(16GG\LL 16G	.	16bn\	.
16AA-\JJ) 16A-	.	16cc\JJ)	.
=122	=122	=122	=122
(16AA-\LL 16A-	(<16ff/LL	4f\	.
16DD\JJ) 16D	16ee-/	.	.
4DD\ 4D	16dd/	.	.
.	16cc/JJ)	.	.
.	&(4cc/	(<16b-\LL	.
.	.	16a-\	.
(16EE-\LL 16E-	.	16g\)	.
16FF\JJ) 16F	.	16a-\JJ&)	.
*	*v	*v	*
!LO:TX:b:t=x	!LO:TX:a:t=x	!
=123	=123	=123
(16EE-\LL 16E-	(16g\LL 16gg	.
16DD\ 16D	16f\JJ) 16ff	.
16FF\ 16F	4a-\ 4aa-	.
16EE-\JJ) 16E-	.	.
(8DD\L 8D	.	.
8BBBn\J) 8BBn	16g\LL 16gg	.
.	16f\JJ 16ff	.
=124	=124	=124
8CC\L 8C	(16f\LL 16ff	.
.	16e-\ 16ee-	.
8DD\J 8D	16d\ 16dd	.
.	16e-\JJ) 16ee-	.
4EE-\ 4E-	(16d\LL 16dd	.
.	16c\JJ) 16cc	.
.	16r	.
.	16c\ 16cc	.
!!pagebreak:original
=125	=125	=125
(16CC/LL 16C	(16e-\LL 16ee-	.
16BBB-/ 16BB-	16d-X\JJ) 16dd-X	.
16AAA-/ 16AA-	4f\ 4ff	.
16BBB-/JJ) 16BB-	.	.
(8AAA-/L 8AA-	.	.
8GGG/J) 8GG	(16e-\LL 16ee-	.
.	16d-\JJ) 16dd-	.
=126	=126	=126
(8AAA-/L 8AA-	(16d-X\LL 16dd-X	.
.	16c\ 16cc	.
8BBB-/J) 8BB-	16B-\ 16b-	.
.	16c\JJ) 16cc	.
8CC/ 8C	(16B-\LL 16b-	.
.	16A-\JJ) 16a-	.
8r	16r	.
.	16A-\ 16a-	.
=127	=127	=127
*	*^	*
!	!	!	!LO:HP:t=cre-scen-do:ext=cd
(16DD-X\LL 16D-X	(<8.a-/L	4..f\ 4..ff	<
16CC\J) 16C	.	.	.
[8DD-\J [8D-	.	.	.
.	16an/Jk)	.	.
(16DD-\LL] 16D-]	(16b-\LL	.	.
16CC\ 16C	16cc\	.	.
16DD-\ 16BB-	16dd-X\JJ)	.	.
16DD-\JJ) 16D-	16ryy	16f\ 16b- 16ff	.
=128	=128	=128	=128
(16DDn\LL 16Dn	(8.a-\L	4..a-\ 4..bn 4..aa-	.
16CC#X\J) 16C#X	.	.	.
[8DD\J [8D	.	.	.
.	16an\Jk)	.	.
(16DD\LL] 16D]	(16b\LL	.	.
16CC#\ 16C#	16cc#X\	.	.
16BBBn\ 16BBn	16dd\JJ)	.	.
16DD\JJ) 16D	16ryy	16a-X\ 16b 16aa-	[
*	*v	*v	*
!!linebreak:original
=129	=129	=129
(16EE-\LL 16E-	(8.cc\L 8.ee- 8.ccc	.
16DD\J) 16D	.	.
[8EE-\J [8E-	.	.
.	16b-\K) 16dd-X 16bb-	.
(16EE-\LL] 16E-]	8b-'\ 8dd- 8bb-	.
16DD\J) 16D	.	.
[8EE-\J [8E-	8dd-'\J 8ff 8ddd-y	.
=130	=130	=130
16EE-\LL] 16E-]	(8dd-X\L 8ff 8ddd-X	.
(16DD\ 16D	.	.
16EE-\ 16E-	8cc\J) 8ee- 8ccc	.
16FF\JJ) 16F	.	.
(16EE-\LL 16E-	8.r	.
16DD\J) 16D	.	.
[8EE-\J [8E-	.	.
.	16a-\ 16cc 16aa-	.
=131	=131	=131
16EE-\LL] 16E-]	(8.a-\L 8.cc 8.aa-	.
16DD\J 16D	.	.
[8EE-\J [8E-	.	.
.	16g\K) 16b- 16gg	.
16EE-\LL] 16E-]	8g'\ 8b- 8gg	.
16DD\J 16D	.	.
[8EE-\J [8E-	8b-'\J 8dd-X 8bb-	.
=132	=132	=132
16EE-\LL] 16E-]	(8b-\L 8dd-X 8bb-	.
(16DD\ 16D	.	.
16EE-\ 16E-	8a-\J) 8cc 8aa-	.
16FF\JJ) 16F	.	.
(16EE-\LL 16E-	8.r	.
16DD\J) 16D	.	.
[8EE-\J [8E-	.	.
.	16f\ 16dd- 16ff	.
=133	=133	=133
(16EE-\LL] 16E-]	(8f\L 8dd-X 8ff	.
16DD\ 16D	.	.
16EE-\ 16E-	8e-\J) 8cc 8ee-	.
16FF\JJ) 16F	.	.
(16EE-\LL 16E-	8.r	.
16DD\J) 16D	.	.
[8EE-\J [8E-	.	.
.	16d-X\ 16b- 16dd-X	.
=134	=134	=134
(16EE-\LL] 16E-]	(8d-X\L 8b- 8dd-X	.
16DD\ 16D	.	.
16EE-\ 16E-	8c\J) 8a- 8cc	.
16FF\JJ) 16F	.	.
(16EE-\LL 16E-	8.r	.
16DD\J) 16D	.	.
[8EE-\J [8E-	.	.
.	16e-\ 16cc 16ee-	.
!!linebreak:original
=135	=135	=135
(16EE-\LL] 16E-]	[2c/ 2a- [2cc	.
16DD\J) 16D	.	.
8EE-\J 8E-	.	.
(16FF-X\LL 16F-X	.	.
16EE-\JJ) 16E-	.	.
16r	.	.
16DD\ 16D	.	.
=136	=136	=136
*	*^	*
(16FFn\LL 16Fn	8.c\L] 8.a- 8.cc]	4ryy	.
16EE-\JJ) 16E-	.	.	.
16r	.	.	.
16EE-\ 16E-	16c\Jk 16a- 16cc	.	.
((4EE-\ 4E-	(8.d-X/L 8.a- 8.dd-X	16d-\LL	.
.	.	16g\	.
.	.	16f#X\	.
.	16g/Jk) 16cc	16dn\JJ	.
*	*v	*v	*
=137	=137	=137
!	!	!LO:DY:Bi:t=f.
16AA-\LL)) 16A-	8c/ 8a-	f
16AA-\JJ 16A-	.	.
4.E-\ 4.e-	8r	.
.	4r	.
=138	=138	=138
8F'\ 8f	2r	.
4E-\ 4e-	.	.
(16D-X\LL 16d-X	.	.
16C\JJ) 16c	.	.
=139	=139	=139
(8.BB-\L 8.B-	2r	.
16C\Jk) 16c	.	.
(16D-X\LL 16d-X	.	.
16C\ 16c	.	.
16D-\ 16d-	.	.
16E-\JJ) 16e-	.	.
!!linebreak:original
=140	=140	=140
(16D-y\LL 16d-X	2r	.
16C\J) 16c	.	.
8AA-\J 8A-	.	.
16r	.	.
(16C\LL 16c	.	.
16BB-\ 16B-	.	.
16AA-\JJ) 16A-	.	.
=141	=141	=141
(16GG\LL 16G	8r	.
16AA-\J) 16A-	.	.
[8GG\J [8G	8e-/	.
(16GG\LL] 16G]	4b-\	.
16FF\J) 16F	.	.
8GG\J 8G	.	.
=142	=142	=142
*	*^	*
8AA-\L 8A-	2r	8cc\	.
(16BB-\L 16B-	.	4b-\	.
16BBn\JJ) 16Bn	.	.	.
4C\ 4c	.	.	.
.	.	(>16a-\LL	.
.	.	16g\JJ)	.
=143	=143	=143	=143
(8.D\L 8.d	2r	(>16f\LL	.
.	.	16g\J)	.
.	.	[>8a-\J	.
16C\K) 16c	.	.	.
(8C-X\ 8c-X	.	16a-\LL]	.
.	.	(>16g\	.
8BB-\J) 8B-	.	16a-\	.
.	.	16b-\JJ)	.
=144	=144	=144	=144
(8.EE-\L 8.E-	2r	(>16a-\LL	.
.	.	16g\J)	.
.	.	8e-\J	.
16FF\Jk) 16F	.	.	.
8GG\L 8G	.	16r	.
.	.	(>16g\LL	.
(16AA-\L 16A-	.	16f\	.
16AAn\JJ) 16An	.	16e-\JJ)	.
!!linebreak:original
=145	=145	=145	=145
(16BB-\LL 16B-	2r	(8.d/L	.
16AAn\J) 16An	.	.	.
[8AA-X\J [8A-X	.	.	.
.	.	16e-/K)	.
16AA-\LL] 16A-]	.	8f'/	.
16BB-\ 16B-	.	.	.
16AA-\ 16A-	.	8g'/J	.
16GG\JJ 16G	.	.	.
=146	=146	=146	=146
(16AA-\LL 16A-	2r	(16f/LL	.
16GG\ 16G	.	16e-/J)	.
16EE-\ 16E-	.	[8c/J	.
16DD\JJ) 16D	.	.	.
8EE-'\L 8E-	.	16c/LL]	.
.	.	(16e-/	.
8EEn'\J 8En	.	16d-X/	.
.	.	16c/JJ)	.
=147	=147	=147	=147
(16GG\LL 16G	2r	(8.B-/L	.
16FF\J) 16F	.	.	.
8EEn\J 8En	.	.	.
.	.	16c/K)	.
16EE-X\LL 16E-X	.	8d-X'/	.
(16GG\ 16G	.	.	.
16FF\ 16F	.	8e-'/J	.
16EE-\JJ) 16E-	.	.	.
=148	=148	=148	=148
8AA-\ 8A-	8r	(>16d-X\LL	.
.	.	16c\)	.
((4.CC\ 4.C	8a-/	16A-\	.
.	.	16B-\JJ	.
.	4ee-/	(>16A-\LL	.
.	.	16c\)	.
.	.	16B-\	.
.	.	16A-\JJ	.
=149	=149	=149	=149
8DD-X\L)) 8D-X	8ff/	[4A-\	.
(16EE-\L 16E-	4ee-/	.	.
16EEn\JJ) 16En	.	.	.
4FF\ 4F	.	16A-\LL]	.
.	.	16A-\J	.
.	(<16dd-X/LL	8a-\J	.
.	16cc/JJ)	.	.
!!pagebreak:original
=150	=150	=150	=150
(16GG\LL 16G	(<8.b-/L	[4e-\	.
16FF\J) 16FJ	.	.	.
!LO:N:vis=4	!	!	!
[8GG\ [8G	.	.	.
.	16cc/Jk)	.	.
16GG\LL] 16G]	(<16dd-X/LL	(>8.e-\L]	.
(16AA-\ 16A-	16cc/	.	.
16GG\ 16G	16dd-/	.	.
!	!	!LO:N:vis=8	!
16EE-\JJ) 16E-	16ee-/JJ)	16g\Jk)	.
=151	=151	=151	=151
8AA-\L 8A-	(<16dd-X/LL	(4e-\	.
.	16cc/J)	.	.
(16BB-\L 16B-	[8a-/J	.	.
16C\JJ) 16c	.	.	.
16D-X\LL 16d-X	16a-/LL]	8f\L)	.
16DD-X\J 16D-X	(<16cc/	.	.
8DDn\J 8Dn	16b-/	[8B-\J	.
.	16a-/JJ)	.	.
=152	=152	=152	=152
(8.EE-\L 8.E-	(2g/	16B-\LL]	.
.	.	16c\J	.
.	.	[>8d-X\J	.
16FF-X\Jk) 16F-X	.	.	.
[4EE-\ [4E-	.	16d-\LL]	.
.	.	(>16c\	.
.	.	16d-\	.
.	.	16e-\JJ)	.
=153	=153	=153	=153
8EE-\L] 8E-]	8a-/L)	(>16d-X\LL	.
.	.	16c\J)	.
16AA-\L 16A-	[8cc/J	[8A-\J	.
16GG\JJ 16G	.	.	.
[4FF\ [4F	(<16cc/LL]	16A-\LL]	.
.	16a-/	16c\	.
.	16g/	16B-\	.
.	16f/JJ)	16A-\JJ	.
!!linebreak:original
=154	=154	=154	=154
(8.FF\L] 8.F]	(2an/	(>16c\LL	.
.	.	16d-X\J)	.
.	.	[8e-\J	.
16GG-X\Jk) 16G-X	.	.	.
[4FF\ [4F	.	16e-\LL]	.
.	.	(>16d-\	.
.	.	16e-\	.
.	.	16f\JJ)	.
=155	=155	=155	=155
8FF\L] 8F]	8b-/L)	(>16e-\LL	.
.	.	16d-X\J)	.
(16BB-\L 16B-	[8dd-X/J	[8B-\J	.
16AA-\JJ) 16A-	.	.	.
[4GG\ [4G	(<16dd-/LL]	(>16B-\LL]	.
.	16b-/	16d-\	.
.	16a-/	16c\	.
.	16g/JJ)	16B-\JJ)	.
=156	=156	=156	=156
(8.GG\L] 8.G]	(<16g/LL	(>16Bn\LL	.
.	16a-/J)	16c\J)	.
.	[8bn/J	[8dn\J	.
16AA-\Jk) 16A-	.	.	.
4GG\ 4G	(16b/LL]	(>16d\LL]	.
.	16cc/	16e-\	.
.	16dd/	16f\	.
.	16g/JJ) 16ee-	16g\JJ)	.
=157	=157	=157	=157
!	!	!	!LO:DY:rj
8AA-\ 8A-	8e-/ 8cc	8e-\L	f
4GG\ 4G	8r	8c\J	.
.	4r	4g/	.
(16FF\LL 16F	.	.	.
16EE-\JJ) 16E-	.	.	.
*	*v	*v	*
=158	=158	=158
8.FF\L 8.F	8a-/	.
.	4g/	.
16FF\Jk 16F	.	.
4C\ 4c	.	.
.	(16f/LL	.
.	16e-/JJ)	.
!!linebreak:original
=159	=159	=159
8D-X\ 8d-X	8.f/L	.
4C\ 4c	.	.
.	16f/Jk	.
.	4cc/	.
(16BB-\LL 16B-	.	.
16AA-\JJ) 16A-	.	.
=160	=160	=160
8BB-\L 8B-	8dd-X/	.
8BB-\J 8B-	4cc/	.
4F\ 4f	.	.
.	(16b-/LL	.
.	16a-/JJ)	.
=161	=161	=161
8G-X\ 8g-X	8b-\L	.
4F\ 4f	8b-\J	.
.	4ff\	.
(16E-\LL 16e-	.	.
16D-X\JJ) 16d-X	.	.
=162	=162	=162
*^	*	*
[2c/	(8C\L	8gg-X\	.
.	8Dn\	4ff\	.
.	8E-\	.	.
.	8F\J)	(16ee-\LL	.
.	.	16dd\JJ)	.
=163	=163	=163	=163
2c/_	(8D\L	8aa-\	.
.	8E-\	4gg\	.
.	8F\	.	.
.	8G\J)	(16ff\LL	.
.	.	16ee-\JJ)	.
=164	=164	=164	=164
2c/]	(8En\L	8bb-\	.
.	8F\	4aa-\	.
.	8G\	.	.
.	8A-\J)	(16gg\LL	.
.	.	16ff\JJ)	.
!!linebreak:original
=165	=165	=165	=165
*	*	*^	*
4..G/	4r	16ee-/LL	(16cc\LL	.
.	.	(<16ee-/J	16b-\	.
.	.	8ccc/J)	16a-\	.
.	.	.	16g\JJ)	.
.	8.r	16r	(16a-\LL	.
.	.	(<16cc/KL	16g\	.
.	.	8aa-/J)	16f\	.
16G/	16G\	.	16e-\JJ)	.
=166	=166	=166	=166	=166
2G/	2GG\ 2G	16r	(16f\LL	.
.	.	(<16a-/KL	16e-\	.
.	.	8ff/J)	16d\	.
.	.	.	16c\JJ)	.
.	.	16r	8d\	.
.	.	(<16f/KL	.	.
.	.	8dd/J)	8r	.
=167	=167	=167	=167	=167
4..G/	4..G\	16r	(>16bn\LL	.
.	.	(<16dd/KL	16an\	.
.	.	8bbn/J)	16g\	.
.	.	.	16f\JJ)	.
.	.	16r	(>16g\LL	.
.	.	(<16bn/KL	16f\	.
.	.	8gg/J)	16e-\	.
16G/	16G\	.	16d\JJ)	.
=168	=168	=168	=168	=168
2G/	2GG\ 2G	16r	(>16e-\LL	.
.	.	(<16g/KL	16d\	.
.	.	8ee-/J)	16c\	.
.	.	.	16Bn\JJ)	.
.	.	16r	8c\	.
.	.	(<16e-/KL	.	.
.	.	8cc/J)	8r	.
=169	=169	=169	=169	=169
4..G/	4..G\	16r	(>16a-\LL	.
.	.	(<16cc/KL	16g\	.
.	.	8aa-/J)	16f\	.
.	.	.	16e-\JJ)	.
.	.	16r	(>16f\LL	.
.	.	(<16a-/KL	16e-\	.
.	.	8ff/J)	16d\	.
16G/	16G\	.	16c\JJ)	.
*v	*v	*	*	*
!!linebreak:original
=170	=170	=170	=170
(4GG\ 4G	16r	(>16d\LL	.
.	(<16g/KL	16c\	.
.	8dd/J)	16Bn\	.
.	.	16An\JJ)	.
!LO:N:vis=4.	!	!	!
8.GG\) 8.F	16r	8B\	.
.	(<16f/KL	.	.
!	!LO:TX:t=P:problem:wykreślone 4 takty	!	!
.	8bn/J)	8r	.
!LO:N:vis=8	!	!	!
16D\	.	.	.
*	*v	*v	*
!!linebreak:original
=171	=171	=171
*^	*	*
!	!	!	!LO:DY:rj
8GG/L	[2GG\	16r	p
.	.	(16Bn/KL	.
8GG/J	.	8g/J)	.
4D/	.	16r	.
.	.	(16bn\KL	.
.	.	8gg\J)	.
=172	=172	=172	=172
*	*^	*	*
!LO:N:vis=4	!	!	!	!
8D/	2GG\]	8.r	16r	.
.	.	.	(16Bn/KL	.
4.D/	.	.	8g/J)	.
.	.	16GGG/	.	.
.	.	4DD\	4r	.
*v	*v	*v	*	*
=173	=173	=173
*	*^	*
!	!	!	!LO:DY:rj
16r	8.c/L	[2c\	f
(16GG\KL	.	.	.
8E-\J)	.	.	.
.	16c/Jk	.	.
16r	4g/	.	.
(16GGG/KL	.	.	.
8EE-/J)	.	.	.
=174	=174	=174	=174
*	*	*^	*
16r	8a-/	2c\]	8.r	.
(16GG\KL	.	.	.	.
8E-\J)	4.g/	.	.	.
.	.	.	16cc/	.
4r	.	.	4gg/	.
*	*v	*v	*v	*
!!pagebreak:original
=175	=175	=175
*^	*	*
!	!	!LO:TX:t=P:problem:wykreślone 4 takty u góry strony	!LO:DY:rj
8r	[2GG\	16r	f
.	.	(16Bn/KL	.
8D/	.	8g/J)	.
4G/	.	16r	.
.	.	(16bn\KL	.
.	.	8gg\J)	.
=176	=176	=176	=176
!	!	!	!LO:DY:rj
8F/	2GG\_	16r	p
.	.	(16Bn/LL	.
[4.E-/	.	16c/	.
.	.	16a-/JJ)	.
.	.	(16g/LL	.
.	.	16B/J	.
.	.	8c/J)	.
=177	=177	=177	=177
8E-/]	2GG\_	16r	.
.	.	(16Bn/KL	f
8D/	.	8g/J)	.
4G/	.	16r	.
.	.	(16bn\KL	.
.	.	8gg\J)	.
=178	=178	=178	=178
!	!	!	!LO:DY:rj
8F/	2GG\]	16r	p
.	.	(16Bn/LL	.
4.E-/	.	16c/	.
.	.	8qb-/	.
.	.	16a-/JJ)	.
.	.	(16g/LL	.
.	.	16B-X/J	.
.	.	8c/J)	.
*v	*v	*	*
=179	=179	=179
!	!	!LO:DY:rj
8.GG\L 8.G	16r	p
.	16G\KL 16g	.
.	[8g\J [8gg	.
16FF#X\Jk 16F#X	.	.
(16FFn\KL 16Fn	8.g\L] 8.gg]	.
(8.EEn\J) (8.En	.	.
.	16g\Jk 16gg	.
!!linebreak:original
=180	=180	=180
8EE-\L) 8E-)	8gg\L 8ggg	.
!	!	!LO:HP:b=2
(16FF\L 16F	[8g\J [8gg	>
16EE\JJ 16E)	.	.
4FF\ 4F	(16g\LL] 16gg]	.
.	16a-\J) 16aa-	]
.	8g\J 8gg	.
=181	=181	=181
(8.EEn\L 8.En	16r	.
.	16G\KL 16g	.
.	[8g\J [8gg	.
16EE-X\Jk) 16E-X	.	.
16DD\KL 16D	8.g\L] 8.gg]	.
[8.CC#X\J [8.C#X	.	.
.	16g\Jk 16gg	.
=182	=182	=182
8CC#\L] 8C#]	8gg\L 8ggg	.
(16DD\L 16D	[8g\J [8gg	>
16CC#X\JJ) 16C#X	.	.
4DD\ 4D	(16g\LL] 16gg]	.
.	16a-\J) 16aa-	.
.	8g\J 8gg	]]
=183	=183	=183
!	!	!LO:DY:rj
(16CCn\KL 16Cn	8.r	f
[8.BBBn\J) [8.BBn	.	.
!	!	!LO:HP:b=2:t=cre-scen-do:ext=cd
.	16a-\ 16aa-	<
8BBB\L] 8BB]	(16g\LL 16gg	.
.	16f\ 16ff	.
(16CC\L 16C	16e-\ 16ee-	.
16DD\JJ) 16D	16d\JJ) 16dd	.
=184	=184	=184
8.DD\L 8.D	(16c\KL 16cc	.
.	[8.Bn\J) [8.bn	.
16AA-\Jk 16A-	.	.
(16GG\LL 16G	8B\L] 8b]	.
16FF\ 16F	.	.
16EE-\ 16E-	(16c\L 16cc	.
16DD\JJ) 16D	16d\JJ) 16dd	.
!!linebreak:original
=185	=185	=185
(16CC\KL 16C	8.d\L 8.dd	.
[8.BBBn\J) [8.BBn	.	.
.	16a-\Jk 16aa-	.
(8.BBB\L] 8.BB]	(16g\LL 16gg	.
.	16f\ 16ff	.
.	16e-\ 16ee-	.
16BBn\Jk) 16Bn	16d\JJ) 16dd	.
=186	=186	=186
(16C\KL 16c	8.dd\L 8.ddd	.
[8.BBn\J) [8.Bn	.	.
.	16aa-\Jk 16aaa-	.
8.BB\L] 8.B]	(16gg\LL 16ggg	.
.	16ff\ 16fff	.
.	16ee-\ 16eee-	.
16Bn\Jk 16bn	16dd\JJ) 16ddd	[
=187	=187	=187
(16c\LL 16cc	8.dd\L 8.ddd	.
16Bn\JJ) 16bn	.	.
16r	.	.
16a-\	16aa-\Jk 16aaa-	.
!	!	!LO:DY:rj
(16g\LL	(16gg\LL 16ggg	ff
16f\	16ff\ 16fff	.
16e-\	16ee-\ 16eee-	.
16d\JJ)	16dd\JJ) 16ddd	.
=188	=188	=188
(16c\LL	(16cc\LL 16ccc	.
16Bn\	16bn\ 16bbn	.
16A-\	16a-\ 16aa-	.
16G\JJ)	16g\JJ) 16gg	.
(16F\LL	(16f\LL 16ff	.
16E-\	16e-\ 16ee-	.
16D\	16d\ 16dd	.
16C\JJ)	16c\JJ) 16cc	.
!!linebreak:original
=189	=189	=189
(16BBn/LL	(16Bn\LL 16bn	.
16AA-/	16A-\ 16a-	.
16GG/	16G\ 16g	.
16FF/JJ)	16F\JJ) 16f	.
(16EE-/LL	(16E-\LL 16e-	.
16DD/	16D\ 16d	.
16EE-/	16E-\ 16e-	.
16FF/JJ)	16F\JJ) 16f	.
=190	=190	=190
(16GG\LL	(16G\LL 16g	.
16AA-\	16A-\ 16a-	.
16BBn\	16Bn\ 16bn	.
16C\JJ)	16c\JJ) 16cc	.
(16E-\LL	(16e-\LL 16ee-	.
16D\JJ)	16d\JJ) 16dd	.
16r	16r	.
!	!	!LO:DY:rj
16BBBn/ 16BBn	16g\ 16ee- 16gg	f
=191	=191	=191
(16CC/LL 16C	(8.g\L 8.ee- 8.gg	.
16BBBn/J) 16BBn	.	.
[8CC/J [8C	.	.
.	16f\K) 16dd 16ff	.
16CC\LL] 16C]	8f'\ 8dd 8ff	.
16CC\J 16C	.	.
8C\J 8F 8A- 8c	8a-'\J 8ff 8aa-	.
=192	=192	=192
(16CC\LL 16C	(8a-\L 8ff 8aa-	.
16BBBn\ 16BBn	.	.
16CC\ 16C	8g\J) 8ee- 8gg	.
16DD\JJ) 16D	.	.
(16EE-\LL 16E-	8.r	.
16CC\JJ) 16C	.	.
16r	.	.
16BBB/ 16BB	16g\ 16ee- 16gg	.
=193	=193	=193
16CC/LL 16C	(8.g\L 8.ee- 8.gg	.
16BBBn/J 16BBn	.	.
[8CC/J [8C	.	.
.	16f\Jk) 16dd 16ff	.
16CC\LL] 16C]	(16f\LL 16dd 16ff	.
16CC\J 16C	16e-\ 16cc 16ee-	.
8C\J 8F 8A- 8c	16f\ 16dd 16ff	.
.	16a-\JJ) 16ff 16aa-	.
!!linebreak:original
=194	=194	=194
(16CC\LL 16C	(8a-\L 8ff 8aa-	.
16BBBn\ 16BBn	.	.
16CC\ 16C	8g\J) 8ee- 8gg	.
16DD\JJ) 16D	.	.
(16EE-\LL 16E-	8.r	.
16CC\JJ) 16C	.	.
16r	.	.
16BBB/ 16BB	16g\ 16ee- 16gg	.
=195	=195	=195
(8.FF\L 8.F	(8e-\L 8a- 8ee-	.
.	8d\J) 8dd	.
16EEn\Jk) 16En	.	.
(16FF\LL 16F	8.r	.
16GG\ 16G	.	.
16FF\ 16F	.	.
16DD\JJ) 16D	16f\ 16a- 16ff	.
=196	=196	=196
(8.EE-\L 8.E-	(8d\L 8g 8dd	.
.	8c\J) 8cc	.
16DD\Jk) 16D	.	.
(16EE-\LL 16E-	8.r	.
16FF\ 16F	.	.
16EE-\ 16E-	.	.
16CC\JJ) 16C	16e-\ 16g 16ee-	.
=197	=197	=197
(8.FF\L 8.F	(16e-\LL 16a- 16ee-	.
.	16d\J) 16dd	.
.	[8f\J [8a- [8ff	.
16EE-\Jk) 16E-	.	.
(16DD\LL 16D	16f\LL] 16a-] 16ff]	.
16EE-\ 16E-	(16e-\ 16ee-	.
16FF\ 16F	16d\ 16an 16dd	.
16FF#X\JJ) 16F#X	16c\JJ) 16d 16cc	.
=198	=198	=198
(8.GG\L 8.G	(8c\L 8e- 8cc	.
.	8Bn\J) 8d 8bn	.
16AA-\Jk) 16A-	.	.
(16GG\LL 16G	8.r	.
16FF#X\ 16F#X	.	.
16GG\ 16G	.	.
16BBBn\JJ) 16BBn	16g\ 16ee- 16gg	.
!!pagebreak:original
=199	=199	=199
(16CC/LL 16C	(8.g\L 8.ee- 8.gg	.
16BBBn/J) 16BBn	.	.
[8CC/J [8C	.	.
.	16f\K) 16dd 16ff	.
16CC\LL] 16C]	8f'\ 8dd 8ff	.
16CC\J 16C	.	.
8C\J 8F 8A- 8c	8a-'\J 8ff 8aa-	.
=200	=200	=200
(16CC\LL 16C	(8a-\L 8ff 8aa-	.
16BBBn\ 16BBn	.	.
16CC\ 16C	8g\J) 8ee- 8gg	.
16DD\JJ) 16D	.	.
(16EE-\LL 16E-	8.r	.
16CC\JJ) 16C	.	.
16r	.	.
16BBB/ 16BB	16g\ 16ee- 16gg	.
=201	=201	=201
!	!	!LO:HP:a
16CC\LL 16C	16g\LL 16ee- 16gg	<
(16EE-\ 16E-	(16c\ 16cc	.
16FF\ 16F	16d\ 16dd	.
16GG\JJ 16G	16e-\JJ 16ee-	.
16AA-\LL 16A-	16f\LL 16ff	.
16GG\ 16G	16g\ 16gg	.
16FF\ 16F	16a-\ 16aa-	.
16AA-\JJ) 16A-	16cc\JJ) 16ccc	.
=202	=202	=202
(16CC\LL 16C	(8a-\L 8ff 8aa-	.
16BBBn\ 16BBn	.	.
!	!	!LO:HP:a
16CC\ 16C	8g\J) 8ee- 8gg	[ >
16DD\JJ) 16D	.	.
(16EE-\LL 16E-	8r	.
16CC\J) 16C	.	.
8E-:\J 8c: 8g:	(16bn\LL 16bbn	]
.	16cc\JJ) 16ccc	.
!!linebreak:original
=203	=203	=203
*^	*	*
4.c/ 4.e-	(>16A-\LL	((8cc\L 8ccc	.
.	16G\	.	.
.	16A-\	8ff\J))	.
.	16B-\JJ)	.	.
.	8A-\L	8r	.
8f:/	8F:\J 8c:	(16bn\LL 16bbn	.
.	.	16cc\JJ) 16ccc	.
=204	=204	=204	=204
4.c/ 4.e-	(>16G\LL	(8cc\L (8ccc	.
.	16F#X\	.	.
.	16G\	8ee-\J))	.
.	16A-\JJ)	.	.
.	8G\L	8r	.
8g:/	8E-:\J 8c:	(16bn\LL 16bbn	.
.	.	16cc\JJ) 16ccc	.
*v	*v	*	*
=205	=205	=205
8.F\L 8.c 8.d	(16cc\LL (16ccc	.
.	16dd\JJ))	.
.	4a-\ 4aa-	.
16E-\J 16c 16e-	.	.
8D\L 8c 8f	.	.
8G\J 8Bn	(16g\LL 16gg	.
.	16f\JJ) 16ff	.
=206	=206	=206
(8.C\L 8.c	(16f\LL 16g 16ff	.
.	16e-\JJ) 16ee-	.
.	4g\ 4gg	.
16BBn\K) 16Bn	.	.
8BB-X'\ 8B-X	.	.
(16AA-\L 16A-	(16f\LL 16cc 16ff	.
16GG\JJ) 16G	16e-\JJ) 16cc 16ee-	.
=207	=207	=207
(8.FF\L 8.F	8e-'\L 8a- 8cc	.
.	[8d\J [<8a- [8dd	.
16GG\Jk) 16G	.	.
(16FF\LL 16F	16d\LL] 16a-] 16dd]	.
16DD\ 16D	(16f\ 16a- 16ff	.
16EE-\ 16E-	16e-\ 16a- 16ee-	.
16FF\JJ) 16F	16d\JJ) 16a- 16dd	.
!!linebreak:original
=208	=208	=208
*	*^	*
4..GG\ 4..G	4ryy	(16d\LL 16e- 16dd	.
.	.	16c\J) 16cc	.
.	.	8e-\J 8g 8cc	.
.	(16cc/LL 16gg	8.f\L	.
.	16bn/JJ)	.	.
.	16r	.	.
16GG\ 16G	16cc/	16f\Jk	.
=209	=209	=209	=209
!	!	!	!LO:DY:rj
(16C\LL 16c	4ryy	(8.e-\L 8.cc	p
16BBn\J) 16Bn	.	.	.
[8BB-X\J [8B-X	.	.	.
.	.	16d\Jk) 16dd	.
8BB-\L] 8B-]	(<16ee-/LL	4c\	.
.	16g/J)	.	.
8AAn\J 8An	8f#X'</J	.	.
=210	=210	=210	=210
(16BB-\LL 16B-	4ryy	(8.d\L 8.b-	.
16AAn\J) 16An	.	.	.
[8AA-X\J [8A-X	.	.	.
.	.	16c\Jk) 16cc	.
8AA-\L] 8A-]	(<16dd/LL	4B-\	.
.	16fn/J)	.	.
8GG\J 8G	8e-/J	.	.
=211	=211	=211	=211
(16FF#X\LL 16F#X	8dd/	[2d\	.
16DD\ 16D	.	.	.
16EEn\ 16En	4cc/	.	.
16FF#\JJ) 16F#	.	.	.
(16GG\LL 16G	.	.	.
16FF#\ 16F#	.	.	.
16GG\ 16G	(<16b-/LL	.	.
16AAn\JJ) 16An	16a-/JJ)	.	.
=212	=212	=212	=212
8C\L 8c	(<8.g/L	4..d\]	.
[8BB-\J [8B-	.	.	.
.	16f#X/Jk)	.	.
16BB-\LL] 16B-]	(<16g/LL	.	.
(16AAn\ 16An	16an/	.	.
16GG\ 16G	16b-/	.	.
16BB-\JJ) 16B-	16g/JJ)	16d\	.
*	*v	*v	*
!!linebreak:original
=213	=213	=213
!	!	!LO:DY:rj
(16D\LL 16F#X	(8.d/L	p
16E-\J) 16G	.	.
[8E-\J [8G	.	.
.	16c#X/Jk)	.
16E-\LL] 16G]	[>4cn/	.
16E-\J 16G	.	.
8AAn\J 8G	.	.
=214	=214	=214
(16C\LL 16En	(8.c/L]	.
16D-X\J) 16Fn	.	.
[8D-\J [8F	.	.
.	16Bn/Jk)	.
16D-\LL] 16F]	[4B-X/	.
16D-\J 16F	.	.
8GG\J 8F	.	.
=215	=215	=215
*^	*	*
[4En/	(>8.C\L	(16B-/LL]	.
.	.	16G/J)	.
.	.	8G/J	.
.	16BB-\Jk)	.	.
(<16E/LL]	(>8AAn\L	(8c/L	.
16F/J)	.	.	.
8F/J	8D\J)	8An/J)	.
=216	=216	=216	=216
[4F#X/	(>8.D\L	(16c/LL	.
.	.	16An/J)	.
.	.	8A/J	.
.	16C\Jk)	.	.
(<16F#/LL]	(>8BB-\L	(8d/L	.
16G/J)	.	.	.
8G/J	8E-\J)	8B-/J)	.
*v	*v	*	*
=217	=217	=217
(16D\LL	8.r	.
16G\J)	.	.
[8G\J	.	.
.	16B-/ 16d 16g	.
8G\L]	(16c\LL 16e- 16g	.
.	16e-\J) 16g 16dd	.
(16E-\L	8e-\J 8g 8cc	.
16C\JJ)	.	.
!!linebreak:original
=218	=218	=218
(16C\LL	8.r	.
16G\J)	.	.
[8G\J	.	.
.	16c/ 16e- 16g	.
8G\L]	(16B-\LL 16d 16g	.
.	16d\J) 16g 16cc	.
(16D\L	8d\J 8g 8b-	.
16BB-\JJ)	.	.
=219	=219	=219
(16AAn\LL	8.r	.
16G\J)	.	.
[8G\J	.	.
.	16d\ 16e- 16g	.
16G\LL]	4c\ 4e- 4g	.
16G\J	.	.
8AA\J	.	.
=220	=220	=220
(16BB-\LL	8.r	.
16G\J)	.	.
8G\J	.	.
.	16c/ 16d 16g	.
(16G\LL	4B-/ 4d 4g	.
16G\J)	.	.
8BB-\J	.	.
=221	=221	=221
!	!	!LO:HP:b=2
(16BBn\LL	8.r	<
16G\)	.	.
16G'\	.	.
16A-'\JJ	16d\ 16f 16cc	.
8G\	(16d\LL 16f 16bn	.
.	16a-\J) 16aa-	.
8r	8g\J 8gg	[[
=222	=222	=222
!	!	!LO:HP:b=2
(16C#X\LL	8.r	<
16An\)	.	.
16A\	.	.
16B-\JJ	16en\ 16g 16dd	.
8A\	(16e\LL 16g 16cc#X	.
.	16b-\J) 16bb-	.
8r	8an\J 8aan	[[
=223	=223	=223
*	*^	*
!	!	!	!LO:DY:rj
(16c\LL	16r	16ryy	p
16G\J)	16an/LL	16e-X\KL	.
[8F#X\J	(<16a/	8e-\J	.
.	16b-/JJ)	.	.
16F#\LL]	(<8cc/L	4d\	.
(16E#X\	.	.	.
16F#\	8f#X/J)	.	.
16An\JJ)	.	.	.
!!linebreak:original
=224	=224	=224	=224
(16A-X\LL	16r	16ryy	.
16E-\J)	16f/LL	16c\KL	.
[8D\J	(<16f/	8c\J	.
.	16g/JJ)	.	.
16D\LL]	(<8a-/L	4Bn\	.
(16C#X\	.	.	.
16D\	8d/J)	.	.
16F\JJ)	.	.	.
*	*v	*v	*
=225	=225	=225
*^	*	*
2F/	(>16D\LL	16r	.
.	16AA-\J)	16Bn/KL	.
.	[>8GG\J	8B/J	.
.	8GG\L]	(16f/LL	.
.	.	16c/J)	.
.	8GG#X'>\J	8B'/J	.
=226	=226	=226	=226
2F/	(>16D\LL	16r	.
.	16AAn\J)	16B-X/KL	.
.	[>8GG#X\J	8B-/J	.
.	8GG#\L]	(16f/LL	.
.	.	16B-/J)	.
.	8AA\J	8An/J	.
*v	*v	*	*
=227	=227	=227
*	*^	*
*	*	*^	*
!	!	!	!	!LO:HP:b=2:t=cre-scen:ext=cd
(16C/LL	4d/	4..F\	4..f/	<
16BB-/J)	.	.	.	.
8AAn'/J	.	.	.	.
4BB-/	(16e-\LL	.	.	.
.	16d\JJ)	.	.	.
.	16r	.	.	.
.	16ryy	16F\	16d/ 16f	.
*	*	*v	*v	*
=228	=228	=228	=228
(16C/LL	4d/	4..F/ 4..f	.
16BBn/J)	.	.	.
8AA#X'/J	.	.	.
4BB/	(16e-\LL	.	.
.	16d\JJ)	.	.
.	16r	.	.
.	16d/ 16f#X	16F#X\	.
=229	=229	=229	=229
(16C#X/LL	4e-/	4..F#X/ 4..f#X	.
16BBn/J)	.	.	.
8AA#X'/J	.	.	.
4BB/	(16en\LL	.	[
.	16d\JJ)	.	.
.	16r	.	.
.	16d/ 16g	16G\	.
!!pagebreak:original
=230	=230	=230	=230
(16Cn/LL	4e-X/	4..G/ 4..g	.
!	!	!	!LO:HP:b=2
16BBn/J)	.	.	<
8AA#X'/J	.	.	.
8.BB/L	(16en\LL	.	.
.	16d#X\JJ)	.	.
.	16r	.	.
16GG/Jk	16ryy	16G/ 16Bn 16dn	.
*	*v	*v	*
=231||	=231||	=231||
*k[]	*k[]	*
!	!	!LO:DY:rj
(8.CC\L 8.C	(>16G/LL 16c 16e	[ f
.	16G/J) 16e 16g	.
.	[8G/J [8e [8g	.
16BBB\Jk) 16BB	.	.
(8CC/L 8C	(16G/LL] 16e] 16g]	.
.	16F#X/J) 16d#X 16f#X	.
8GGG/J) 8GG	[8G/J [8e [8g	.
=232	=232	=232
[4CC/ [4C	16G/LL] 16e] 16g]	.
.	(16A/ 16f 16a	.
.	16G/ 16e 16g	.
.	16F#X/JJ) 16d#X 16f#X	.
(16CC/LL] 16C]	(16G/LL 16e 16g	.
16DD/ 16D	16E/JJ) 16c 16e	.
16CC/ 16C	8r	.
16BBB/JJ) 16BB	.	.
=233	=233	=233
!	!	!LO:HP:a
(16AAA/LL 16AA	(16F\LL 16c 16f	<
16GGG/J) 16GG	16G\ 16g	.
8FFF/J 8FF	16A\ 16a	.
.	16B\JJ) 16c 16b	.
.	8qdd/	.
(8.AAA/L 8.AA	(16c\LL 16f 16cc	.
.	16B\ 16b	.
.	16c\ 16cc	.
16FFF/Jk) 16FF	16A\JJ 16c 16a)	[[
!!linebreak:original
=234	=234	=234
!	!	!LO:HP:a
(8.CC\L 8.C	(16A\LL 16c 16a	>
.	16A-X\J 16a-X)	.
.	[8G\J [<8e [8g	.
16BBB\Jk) 16BB	.	.
*	*Xtuplet	*
4CC/ 4C	(12G\L] 12e] 12g]	]]
.	12F#X\) 12d#X 12f#X	.
.	12G\J 12e 12g	.
=235	=235	=235
*	*^	*
!	!	!	!LO:DY:rj
(16DD\LL 16D	8r	(>16f\LL	p
16CC\J) 16C	.	16a\J)	.
[8BBB\J [8BB	(<16a/LL	8a\J	.
.	16ff/JJ)	.	.
16BBB\LL] 16BB]	4ryy	(8.a\L 8.ff	.
16BB\J 16B	.	.	.
8C\J 8c	.	.	.
.	.	16g\Jk) 16ee	.
=236	=236	=236	=236
8GG\L 8G	()16g\LL 16ee	4.ryy	.
.	16f\ 16dd	.	.
.	8qee/	.	.
8D\J 8G 8B	16f\ 16dd	.	.
.	16e'\JJ) 16cc#X	.	.
8GG:\ 8D: 8G: 8B:	(16g\LL 16gg	.	.
.	16f\JJ) 16ff	.	.
8r	8r	16ryy	.
.	.	16f\	.
=237	=237	=237	=237
(16CC/LL 16C	8r	(>16e\LL	.
16BBB/J) 16BB	.	16g\J)	.
[8AAA/J [8AA	(<16g/LL	8g\J	.
.	16ee/JJ)	.	.
16AAA\LL] 16AA]	4ryy	(8.g\L 8.ee	.
16AA\J 16A	.	.	.
8BB\J 8B	.	.	.
.	.	16f\Jk) 16dd	.
=238	=238	=238	=238
8C\L 8c	4.ryy	(16f\LL 16dd	.
.	.	16e\) 16cc	.
.	.	8qdd/	.
8G\J 8c	.	16e'\ 16cc	.
.	.	16d'\JJ 16b	.
8C\ 8G 8c	.	16f\LL 16dd	.
.	.	16e\JJ 16cc	.
8r	8r	16r	.
.	.	16e\	.
!!linebreak:original
=239	=239	=239	=239
*^	*	*	*
!	!	!	!	!LO:DY:rj
8BB/L 8D	8BBB\	(<16d/LL	8A\	p
.	.	16f/J)	.	.
(<16BB/L 16D	8r	[8f/J	4.A-X\	.
16D/JJ) 16F	.	.	.	.
8D/L	8r	(<16f/LL]	.	.
.	.	16e/	.	.
(16BBB/L 16BB	8ryy	16d/	.	.
16CC/JJ) 16C	.	16e/JJ)	.	.
=240	=240	=240	=240	=240
8DD/L 8D	8DD\	(<16f/LL	8c\	.
.	.	16a/J)	.	.
(<16D/L	8r	[8a/J	4.B\	.
16F/JJ)	.	.	.	.
8F/L	8r	16a/LL]	.	.
.	.	(16g/	.	.
(16DD/ 16D/L	8ryy	16f/	.	.
16EE/ 16E/JJ)	.	16g/JJ)	.	.
=241	=241	=241	=241	=241
8F/L	8FF\	(<16a/LL	8e\	.
.	.	16cc/J)	.	.
(<16F/L 16A	8r	[8cc/J	4.d\	.
16A/JJ)	.	.	.	.
8A/L	8r	(<16cc/LL]	.	.
.	.	16b/	.	.
(16FF/L 16F	8ryy	16a/	.	.
16GG/JJ) 16G	.	16cc/JJ)	.	.
*v	*v	*	*	*
=242	=242	=242	=242
[4GG\ [4G	(<16b/LL	8.f\L	.
.	16cc/	.	.
.	16cc#X/	.	.
.	16dd/JJ)	16f\Jk 16b	.
16GG\LL] 16G]	(<16cc#/LL 16ee	8f\	.
16GG\J 16G	16b/JJ) 16dd	.	.
8GGG\J 8GG	8r	8ryy	.
*	*v	*v	*
!!linebreak:original
=243	=243	=243
!	!	!LO:DY:rj
(8.CC/L 8.C	(16e\LL 16cc 16ee	f
.	16g\J) 16ee 16gg	.
.	[8g\J [8ee [8gg	.
16BBB/Jk) 16BB	.	.
(8CC/L 8C	(16g\LL] 16ee] 16gg]	.
.	16f#X\J) 16dd#X 16ff#X	.
8GGG/J) 8GG	8g\J 8ee 8gg	.
=244	=244	=244
[4CC\ [4C	(16g\LL 16ee 16gg	.
.	16a\ 16ff 16aa	.
.	16g\ 16ee 16gg	.
.	16f#X\JJ) 16dd#X 16ff#X	.
16CC\LL] 16C]	(16g\LL 16ee 16gg	.
(16DD\ 16D	16e\JJ) 16cc 16ee	.
16CC\ 16C	8r	.
16BBB\JJ) 16BB	.	.
=245	=245	=245
(16AAA/LL 16AA	(16f\LL 16ff	.
16GGG/J) 16GG	16g\ 16gg	.
8FFF/J 8FF	16a\ 16aa	.
.	16b\JJ) 16cc 16bb	.
.	8qddd/	.
(8.AAA/L 8.AA	(>16cc\LL 16ff 16ccc	.
.	16b\ 16bb	.
.	16cc\ 16ccc	.
16FFF/Jk) 16FF	16a\JJ) 16aa	.
=246	=246	=246
(8.CC/L 8.C	16a\LL 16cc 16aa	.
.	16a-X\J 16aa-X	.
.	[8g\J [<8ee [8gg	.
16BBB/Jk) 16BB	.	.
4CC/ 4C	(16g\LL] 16ee] 16gg]	.
.	16f#X\J) 16dd#X 16ff#X	.
.	8g\J 8ee 8gg	.
=247	=247	=247
*	*^	*
(16DD\LL 16D	8r	(>16f\LL	.
16CC\J) 16C	.	16a\J)	.
[8BBB\J [8BB	(<16a/LL	8a\J	.
.	16ff/JJ)	.	.
16BBB\LL] 16BB]	4ryy	(8.f\L 8.a 8.ff	.
16BB\J 16B	.	.	.
8C\J 8c	.	.	.
.	.	16e\Jk) 16g 16ee	.
!!linebreak:original
=248	=248	=248	=248
8GG\L 8G	(16e\LL 16g 16ee	4.ryy	.
.	16d\) 16f 16dd	.	.
.	8qee/	.	.
8D\J 8G 8B	16d'\ 16f 16dd	.	.
.	16c#X'\JJ 16e 16cc#X	.	.
8GG:\ 8D: 8G: 8B:	(16e\LL 16g 16ee	.	.
.	16d\JJ) 16f 16dd	.	.
8r	16r	8r	.
.	16f\	.	.
=249	=249	=249	=249
(16CC/LL 16C	8r	(>16e\LL	.
16BBB/J) 16BB	.	16g\J)	.
[8AAA/J [8AA	(<16g/LL	8g\J	.
.	16ee/JJ)	.	.
16AAA\LL] 16AA]	4ryy	(8.e\L 8.g 8.ee	.
16AA\J 16A	.	.	.
8BB\J 8B	.	.	.
.	.	16d\Jk) 16f 16dd	.
=250	=250	=250	=250
8C\L 8c	4.ryy	(16d\LL 16f 16dd	.
.	.	16c\) 16e 16cc	.
.	.	8qdd/	.
8G\J	.	16c'\ 16e 16cc	.
.	.	16B'\JJ 16d 16b	.
8C\ 8G	.	(16d\LL 16f 16dd	.
.	.	16c\JJ) 16e 16cc	.
8r	8r	16r	.
.	.	16e\	.
=251	=251	=251	=251
*^	*	*	*
[2A/	16F\LL	8r	(>16d\LL	p
.	16E\J	.	16f\J)	.
.	[8D\J	(<16f/LL	8f\J	.
.	.	16dd/JJ)	.	.
.	(>16D\LL]	4ryy	4f\ 4dd [4ff [4ddd	.
.	16E\J)	.	.	.
.	8D\J	.	.	.
*v	*v	*	*	*
*	*v	*v	*
=252	=252	=252
*	*8va	*
*^	*^	*
2A/]	(>4C\	(<16ddd/LL]	4ff\]	.
.	.	16eee/J)	.	.
.	.	8ddd/J	.	<
.	4BB\)	4ryy	(16ff\LL 16fff	.
.	.	.	16gg\J) 16ggg	.
.	.	.	8ff\J 8fff	[[
*v	*v	*	*	*
*	*v	*v	*
*	*X8va	*
!!pagebreak:original
=253	=253	=253
*^	*^	*
[2c/	(>16A\LL	8r	(>16f\LL	p
.	16G\J)	.	16a\J)	.
.	8F\J	(<16a/LL	8a\J	.
.	.	16ff/JJ)	.	.
.	(>16F\LL	[(4aa/ [4fff	4a\ (4ff	.
.	16G\J)	.	.	.
.	8F\J	.	.	.
*v	*v	*	*	*
*	*v	*v	*
=254	=254	=254
*	*8va	*
*^	*^	*
2c/]	(>4E\	16fff/LL)	4aa\] 4fff]	.
.	.	16ggg/J	.	.
.	.	8fff/J	.	.
.	4D\)	4ryy	(16aa\LL 16aaa	.
.	.	.	16bb\J) 16bbb	.
.	.	.	8aa\J 8aaa	.
*v	*v	*	*	*
*	*v	*v	*
*	*X8va	*
=255	=255	=255
*	*8va	*
*^	*	*
8r	8EE\ 8E	((4.ee\ 4.eee	f
(<16BB/LL 16E 16G#X	8r	.	.
16A/JJ)	.	.	.
(<16E/LL 16G# 16B	8r	.	.
16c#X/JJ)	.	.	.
8ryy	16E\LL 16B 16d	8gg#X/))	.
.	16EE\JJ 16E	.	.
*v	*v	*	*
*	*X8va	*
=256	=256	=256
8.EE\L 8.E	(8a\L	.
.	[8cc#X\J)	.
16C#X\Jk 16E 16A	.	.
8E\ 8A 8c#X	16cc#\LL]	.
.	(16a\	.
8r	16g#X\	.
.	16a\JJ)	.
!!linebreak:original
=257	=257	=257
*^	*	*
!	!	!	!LO:DY:rj
8r	8EE\ 8E	(16e\LL 16ee	p
.	.	8qgg/	.
.	.	16f\JJ) 16ff	.
!	!	!LO:N:vis=4.:n=2	!
(<16BB/LL 16E 16G#X	8r	(4e\ 4ee	.
16A/JJ)	.	.	.
(<16E/LL 16G# 16B	8r	.	.
16c#X/JJ)	.	.	.
8ryy	16E\LL 16B 16d	8g#X/)	.
.	16EE\JJ 16E	.	.
*v	*v	*	*
=258	=258	=258
8.EE\L 8.E	(8a\L	.
.	[8ccn\J)	.
16Cn\Jk 16E 16A	.	.
8E\ 8A 8c	16cc\LL]	.
.	(16a\	.
8r	16g#X\	.
.	16a\JJ)	.
=259	=259	=259
!	!LO:TX:a:t=c	!LO:DY:rj
16r	16a\LL 16cc 16ccc	f
16AA/	(16c\ 16e 16cc	.
(16DD#X\LL 16D#X	16c\ 16f#X 16a 16cc	.
16EE\JJ 16E	16c\JJ) 16e 16a 16cc	.
16FF#X\LL 16F#X	8c\ 8d#X 8a 8cc	.
16DD#\JJ) 16D#	.	.
8r	16r	.
.	16c\ 16cc	.
=260	=260	=260
!	!LO:TX:a:t=dis	!
16r	(16cc\LL 16ddd#X	.
16C/	16d\ 16f#X 16b 16dd#X	.
(16FF#X\LL 16F#X	16d\ 16a 16cc 16dd#	.
16GG\JJ) 16G	16d\JJ) 16g 16b 16cc 16dd#	.
(16AA\LL 16A	8d\ 8f#X 8cc 8dd#	.
16FF#\JJ) 16F#	.	.
16r	8r	.
16AA\ 16A	.	.
!!pagebreak:original
=261	=261	=261
16C\LL 16c	8f#X\ 8a 8dd#X 8ff#X	.
16AA\JJ 16A	.	.
16r	8r	.
16C\ 16c	.	.
16D#X\LL 16d#X	8a\ 8cc 8ff# 8aa	.
16C\JJ 16c	.	.
16r	8r	.
16D#\ 16d#	.	.
=262	=262	=262
16F#X\LL 16f#X	8cc\ 8dd#X 8aa 8ccc	.
16D#X\JJ 16d#X	.	.
16r	8r	.
16F#\ 16f#	.	.
16A\LL 16a	8dd#X\ 8ff#X 8ccc 8ddd#X	.
16F#X\JJ 16f#X	.	.
16r	16r	.
16FF#X\ 16F#	16d#X\ 16a 16cc 16dd#	.
=263	=263	=263
*tremolo	*	*
(32GG\LLL	(16e\LL 16g 16cc 16ee	.
32G\	.	.
32GG\	16g\J) 16cc 16ee 16gg	.
32G\	.	.
32GG\	[8g\J [8cc [8ee [8gg	.
32G\	.	.
32GG\	.	.
32G\	.	.
32GG\	(16g\LL] 16cc] 16ee] 16gg]	.
32G\	.	.
32GG\	16f#X\J) 16cc 16dd 16ff#X	.
32G\	.	.
32GG\	[8g\J [8cc [<8ee [8gg	.
32G\	.	.
32GG\	.	.
32G\JJJ)	.	.
=264	=264	=264
(32GG\LLL	16g\LL] 16cc] 16ee] 16gg]	.
32G\	.	.
32GG\	(16a\ 16cc 16een 16aa	.
32G\	.	.
32GG\	16g\ 16cc 16ee 16gg	.
32G\	.	.
32GG\	16f#X\JJ) 16ff#X	.
32G\	.	.
32GG\	(16g\LL 16cc 16ee 16gg	.
32G\	.	.
32GG\	16e\JJ) 16g 16cc 16ee	.
32G\	.	.
32GG\	16r	.
32G\	.	.
32GG\	16e\ 16g 16cc 16ee	.
32G\JJJ)	.	.
!!linebreak:original
=265	=265	=265
(48GGLLL\	(16gLL 16cc 16ee 16gg	.
48G\	.	.
48GG\	.	.
48G\	16ccJ) 16ee 16gg 16ccc	.
48GG\	.	.
48G\	.	.
48GG\	[8ccJ [8ee [8gg [8ccc	.
48G\	.	.
48GG\	.	.
48G\	.	.
48GG\	.	.
48G\	.	.
48GG\	(16ccLL] 16ee] 16gg] 16ccc]	.
48G\	.	.
48GG\	.	.
48G\	16bnJ) 16ee 16gg 16bbn	.
48GG\	.	.
48G\	.	.
48GG\	[8ccJ 8ee 8gg [8ccc	.
48G\	.	.
48GG\	.	.
48G\	.	.
48GG\	.	.
48GJJJ\)	.	.
=266	=266	=266
(48GGLLL\	16ccLL] 16ee 16gg 16ccc]	.
48G\	.	.
48GG\	.	.
48G\	(16dd 16ee 16gg 16ddd	.
48GG\	.	.
48G\	.	.
48GG\	16cc 16ee 16gg 16ccc	.
48G\	.	.
48GG\	.	.
48G\	16bnJJ) 16ee 16gg 16bbn	.
48GG\	.	.
48G\	.	.
48GG\	(16ccLL 16ee 16gg 16ccc	.
48G\	.	.
48GG\	.	.
48G\	16gJJ) 16cc 16ee 16gg	.
48GG\	.	.
48G\	.	.
48GG\	16r	.
48G\	.	.
48GG\	.	.
48G\	16g 16cc 16ee 16gg	.
48GG\	.	.
48GJJJ\)	.	.
=267	=267	=267
*Xtremolo	*	*
8GG\ 8G	(16cc\LL 16ee 16gg 16ccc	.
.	16g\JJ) 16cc 16ee 16gg	.
16r	8r	.
16C'\ 16E 16G 16c	.	.
(16E\LL 16G 16c 16e	8.r	.
16C\JJ) 16E 16G 16c	.	.
8r	.	.
.	16cc\ 16ee 16gg 16ccc	.
=268	=268	=268
8.r	(16ee\LL 16gg 16ccc 16eee	.
.	16cc\JJ) 16ee 16gg 16ccc	.
.	8r	.
16E'\ 16G 16c 16e	.	.
(16G\LL 16c 16e 16g	8.r	.
16E\JJ) 16G 16c 16e	.	.
8r	.	.
!	!LO:TX:t=P:problem:takt skreślony	!
.	16cc\ 16ee 16gg 16ccc	.
!!linebreak:original
=269!|:	=269!|:	=269!|:
*>B	*>B	*
!LO:TX:b:t=1234	!	!
8r	(16ee\LL 16gg 16ccc 16eee	.
.	16cc\JJ) 16ee 16gg 16ccc	.
16r	8r	.
16E\ 16G 16c 16e	.	.
16G\LL 16c 16e 16g	8.r	.
16E\JJ 16G 16c 16e	.	.
8r	.	.
!	!LO:TX:b:t=1	!
.	16ee\ 16gg 16ccc 16eee	.
=270	=270	=270
!	!LO:TX:b:t=2	!
8.r	(16gg\LL 16ccc 16eee 16ggg	.
.	16ee\JJ) 16gg 16ccc 16eee	.
.	8r	.
16G\ 16c 16e 16g	.	.
!	!LO:TX:b:t=3	!
(16c\LL 16e 16g 16cc	8.r	.
16G\JJ) 16c 16e 16g	.	.
16r	.	.
!	!LO:TX:b:t=4	!
16GG\ 16G	16ee\ 16gg 16ccc 16eee	.
=271:|!|:	=271:|!|:	=271:|!|:
*>C	*>C	*
(16GG\LL 16G	8gg\ 8fff 8ggg	.
16FF#X\J) 16F#X	.	.
[8FFn\J [8Fn	8r	.
(16FF\LL] 16F]	[4g\ [<4ff [4gg	.
16EE\ 16E	.	.
16FF\ 16F	.	.
16FF#X\JJ) 16F#X	.	.
=272	=272	=272
(16GG\LL 16G	8.g\L] 8.ff] 8.gg]	.
16FF#X\J) 16F#X	.	.
[8FFn\J [8Fn	.	.
.	16d\Jk 16cc 16dd	.
16FF\LL] 16F]	4dd\ 4ccc 4ddd	.
(16EE\ 16E	.	.
16FF\ 16F	.	.
16FF#X\JJ) 16F#X	.	.
=273:|!	=273:|!	=273:|!
*>D	*>D	*
(8.GG\L 8.G	16gg\LL 16fff 16ggg	.
.	16d\J 16cc 16dd	.
.	[8dd\J 8ccc [8ddd	.
16AA-X\K 16A-X	.	.
8GG\) 8G	16dd\LL] 16ccc 16ddd]	.
.	16d\J 16dd	.
8FF#X'\J 8F#X	8dd\J 8ccc 8ddd	.
=274	=274	=274
(8.GG\L 8.G	16gg\LL 16fff 16ggg	.
.	16d\J 16cc 16dd	.
.	[8dd\J 8ccc [8ddd	.
16AA-X\K 16A-X	.	.
8GG\) 8G	16dd\LL] 16ccc 16ddd]	.
.	16d\J 16cc 16dd	.
8FF#X'\J 8F#X	[8dd\J [<8ccc [8ddd	.
!!pagebreak:original
=275	=275	=275
(8.GG\L 8.G	16dd\LL] 16ccc] 16ddd]	.
.	16d\J 16cc 16dd	.
.	[8dd\J [8ccc [8ddd	.
16AA-X\Jk) 16A-X	.	.
(8.GG\L 8.G	16dd\LL] 16ccc] 16ddd]	.
.	16d\J 16cc 16dd	.
.	[8dd\J [<8ccc [8ddd	.
16AA-\Jk) 16A-	.	.
=276	=276	=276
(16GG\LL 16G	16dd\LL] 16ccc] 16ddd]	.
16FF#X\ 16F#X	16d\J 16cc 16dd	.
16FFn\ 16Fn	[8dd\J [<8ccc [8ddd	.
16EE\JJ) 16E	.	.
(16FF\LL 16F	16dd\LL] 16ccc] 16ddd]	.
16FF#X\ 16F#X	(16d\ 16cc 16dd	.
16GG\ 16G	16d\ 16bn 16dd	.
16GG\JJ) 16G	16e\JJ) 16b 16ee	.
=277||	=277||	=277||
*k[b-e-a-]	*k[b-e-a-]	*
(8.C\L 8.c	(16c\LL 16cc	.
.	16d\J) 16dd	.
.	[8e-\J [8ee-	.
16BBn\Jk) 16Bn	.	.
(16BB-X\LL 16B-X	16e-\LL] 16ee-]	.
16AA-\J) 16A-	(16f\ 16ff	.
8GG\J 8G	16e-\ 16ee-	.
.	16d\JJ) 16dd	.
=278	=278	=278
8AA-\L 8A-	(16c\LL 16cc	.
.	16d\ 16dd	.
[8GG\J [8G	16e-\ 16ee-	.
.	16g\JJ) 16gg	.
(16GG\LL] 16G]	(8.e-\L 8.ee-	.
16FF#X\J) 16F#X	.	.
8GG\J 8G	.	.
.	16d\Jk) 16dd	.
=279	=279	=279
!	!LO:TX:t=P:problem:tt. 279-280 być może alternatywna wersja tt. 277-278	!
(8.C\L	(16c\LL 16cc	.
.	16d\J) 16dd	.
.	[8e-\J [8ee-	.
16C-X\Jk)	.	.
(8.BB-\L	(8.e-\L] 8.ee-]	.
16BBn\Jk)	16d\Jk) 16dd	.
=280	=280	=280
(8.C\L	(16c\LL 16cc	.
.	16d\J) 16dd	.
.	[8e-\J [8ee-	.
16C-X\Jk)	.	.
(8.BB-\L	(8.e-\L] 8.ee-]	.
16BBn\Jk)	16d\Jk) 16dd	.
!!linebreak:original
=281	=281	=281
(8.C\L 8.c	(16c\LL 16cc	.
.	16d\J) 16dd	.
.	[8e-\J [8ee-	.
16BBn\Jk) 16Bn	.	.
(16BB-X\LL 16B-X	16e-\LL] 16ee-]	.
16AA-\J) 16A-	(16f\ 16ff	.
8GG\J 8G	16e-\ 16ee-	.
.	16d\JJ) 16dd	.
=282	=282	=282
8AA-\L 8A-	(16c\LL 16cc	.
.	16d\ 16dd	.
(8GG\ 8G	16e-\ 16ee-	.
.	16g\JJ) 16gg	.
(16GG\L 16G	(8.e-\L 8.ee-	.
16FF#X\J)) 16F#X	.	.
8GG\J 8G	.	.
.	16d\Jk) 16dd	.
=283	=283	=283
(8.C\L 8.c	(16c\LL 16cc	.
.	16d\ 16dd	.
.	16e-\ 16ee-	.
16CC\Jk 16E-	16g\JJ) 16gg	.
16GG\LL 16G	(8.e-\L 8.ee-	.
16A-\	.	.
16B-X\	.	.
16Bn\JJ)	16d\Jk) 16dd	.
=284	=284	=284
!LO:TX:t=P:problem:niezrozumiały zapis	!	!
(4..EE-\ 4.E-	(16c\LL 16cc	.
*rep	*	*
.	16d\ 16dd	.
.	16e-\ 16ee-	.
.	16g\JJ) 16gg	.
.	(8.f\L 8.ff	.
*Xrep	*	*
16GG\) 16G	16d\Jk) 16dd	.
!!linebreak:original
=285	=285	=285
*	*^	*
(8.C\L 8.c	(16c\LL 16cc	[>2g\	.
.	16d\ 16dd	.	.
.	16e-\ 16ee-	.	.
16GG\Jk) 16G	16d\JJ) 16dd	.	.
(8EE-\L 8E-	(16c\LL 16cc	.	.
.	16d\ 16dd	.	.
16GG\L) 16G	16e-\ 16ee-	.	.
16GG\JJ 16G	16d\JJ) 16dd	.	.
=286	=286	=286	=286
(8.C\L 8.c	(16c\LL 16cc	4g\]	.
.	16d\ 16dd	.	.
.	16e-\ 16ee-	.	.
16GG\Jk) 16G	16d\JJ) 16dd	.	.
(16C\LL 16c	(16e-\LL 16g 16ee-	4ryy	.
16GG\ 16G	16g\ 16gg	.	.
16EE-\ 16E-	16cc\ 16ff 16ccc	.	.
16DD\JJ) 16D	16dd\JJ) 16gg 16bbn 16ddd	.	.
*	*v	*v	*
=287	=287	=287
!	!LO:TX:a:t=P:problem:niezrozumiały zapis	!
4CC/ 4C	4e-\ 4cc	.
4r	4r	.
!!linebreak:original
=288	=288	=288
*	*8va	*
4C\ 4G 4c	4cc\ 4ee-\ 4gg 4ccc	.
8.r	8.r	.
16CC\ 16C	16g/ 16cc 16ee-	.
*	*X8va	*
=289	=289	=289
*tremolo	*	*
16CC\LL	(2E-</ (2G< [<2c	.
16C\	.	.
16CC\	.	.
16C\	.	.
16CC\	.	.
16C\	.	.
16CC\	.	.
16C\JJ	.	.
*Xtremolo	*	*
*rep	*	*
*Xrep	*	*
=290	=290	=290
8CC\ 8C 8E- 8G	8c/]))	.
8r	8r	.
4r	4r	.
==	==	==
*-	*-	*-
!!!system-decoration: {(s1,s2)}
!!!ENC: Andrzej Gręziak
!!!END: 2021-10-24
!!!ENC: Krzysztof Stępień
!!!END: 2021-10-29
!!!RDF**kern: > = above
!!!RDF**kern: < = below
